; generated by PrusaSlicer 2.4.2+win64 on 2022-04-29 at 16:59:21 UTC


;
;

;
;
; 

; external perimeters extrusion width = 0.45mm
; perimeters extrusion width = 0.45mm
; infill extrusion width = 0.45mm
; solid infill extrusion width = 0.45mm
; top infill extrusion width = 0.40mm
; support material extrusion width = 0.35mm
; first layer extrusion width = 0.42mm

M73 P0 R77
M201 X2500 Y2500 Z400 E5000 ; sets maximum accelerations, mm/sec^2
M203 X180 Y180 Z12 E80 ; sets maximum feedrates, mm / sec
M204 P1250 R1250 T2500 ; sets acceleration (P, T) and retract acceleration (R), mm/sec^2
M205 X8.00 Y8.00 Z2.00 E10.00 ; sets the jerk limits, mm/sec
M205 S0 T0 ; sets the minimum extruding and travel feed rate, mm/sec
M107
;TYPE:Custom
M862.3 P "MINI" ; printer model check
G90 ; use absolute coordinates
M83 ; extruder relative mode
M104 S170 ; set extruder temp for bed leveling
M140 S85 ; set bed temp
M109 R170 ; wait for bed leveling temp
M190 S85 ; wait for bed temp
M204 T1250 ; set travel acceleration
G28 ; home all without mesh bed level
G29 ; mesh bed leveling 
M204 T2500 ; restore travel acceleration
M104 S240 ; set extruder temp
G92 E0
G1 Y-2 X179 F2400
G1 Z3 F720
M109 S240 ; wait for extruder temp

; intro line
G1 X170 F1000
G1 Z0.2 F720
G1 X110 E8 F900
G1 X40 E10 F700
G92 E0

M221 S95 ; set flow
G21 ; set units to millimeters
G90 ; use absolute coordinates
M83 ; use relative distances for extrusion
M900 K0.2 ; Filament gcode
M107
;LAYER_CHANGE
;Z:0.2
;HEIGHT:0.2
;BEFORE_LAYER_CHANGE
G92 E0.0
;0.2


G1 E-3.2 F2400
G1 Z.2 F720
;AFTER_LAYER_CHANGE
;0.2
G1 Z.4
G1 X49.452 Y69.617 F9000
G1 Z.2 F720
G1 E3.2 F1500
M204 P800
;TYPE:Skirt/Brim
;WIDTH:0.42
G1 F1200
G1 X50.318 Y69.025 E.03224
G1 X50.866 Y68.732 E.01908
G1 X51.514 Y68.508 E.02106
G1 X59.847 Y66.965 E.26043
G1 X120.368 Y66.972 E1.85961
G1 X128.488 Y68.508 E.25395
G1 X129.515 Y68.93 E.03409
G1 X130.204 Y69.361 E.02498
G1 X131.019 Y70.021 E.03224
G1 X131.973 Y71.09 E.04402
G1 X132.536 Y71.976 E.03224
G1 X132.886 Y72.709 E.02498
G1 X133.352 Y74.311 E.05125
G1 X133.47 Y75.643 E.04108
G1 X133.433 Y106.089 E.93554
G1 X133.257 Y107.146 E.03293
G1 X133.02 Y107.942 E.02552
G1 X132.589 Y108.924 E.03293
G1 X132.164 Y109.638 E.02552
G1 X131.506 Y110.483 E.03293
G1 X130.918 Y111.071 E.02552
G1 X129.532 Y112.061 E.05235
G1 X128.786 Y112.426 E.02552
G1 X127.772 Y112.774 E.03293
G1 X126.959 Y112.944 E.02552
G1 X125.793 Y113.035 E.03595
G1 X54.109 Y113.033 E2.20263
G1 X53.041 Y112.944 E.03293
G1 X52.228 Y112.774 E.02552
G1 X51.214 Y112.426 E.03293
G1 X50.451 Y112.05 E.02615
G1 X49.416 Y111.354 E.03833
G1 X48.627 Y110.628 E.03293
G1 X48.09 Y109.994 E.02552
G1 X47.504 Y109.097 E.03293
G1 X47.139 Y108.351 E.02552
G1 X46.791 Y107.337 E.03293
G1 X46.621 Y106.524 E.02552
G1 X46.532 Y105.456 E.03294
G1 X46.55 Y75.118 E.9322
G1 X46.648 Y74.311 E.02498
G1 X46.9 Y73.292 E.03224
G1 X47.19 Y72.533 E.02498
G1 X47.68 Y71.605 E.03224
G1 X48.143 Y70.937 E.02498
G1 X48.842 Y70.154 E.03224
G1 X49.407 Y69.657 E.02314
M204 P1000
; printing object wifi-board-case-full-base-v23 id:0 copy 0
G1 E-2.24 F2400
;WIPE_START
G1 F7200
G1 X50.318 Y69.025 E-.35111
G1 X50.866 Y68.732 E-.19664
G1 X51.514 Y68.508 E-.217
G1 X51.971 Y68.423 E-.14725
;WIPE_END
G1 E-.048 F2400
G1 Z.4 F720
G1 X56.777 Y74.383 F9000
G1 Z.2 F720
G1 E3.2 F1500
M204 P800
;TYPE:Support material
G1 F1200
G1 X56.777 Y77.062 E.08232
G1 X54.457 Y78.401 E.08232
G1 X52.137 Y77.062 E.08232
G1 X52.137 Y74.383 E.08232
G1 X54.457 Y73.044 E.08232
G1 X56.729 Y74.355 E.08058
M204 P1000
G1 X55.706 Y77.485 F9000
M204 P800
G1 F1200
G1 X56.438 Y76.753 E.03181
G1 X56.438 Y76.16 E.01821
G1 X54.768 Y77.83 E.07259
G1 X54.457 Y78.01 E.01101
G1 X54.165 Y77.841 E.01038
G1 X56.438 Y75.568 E.09878
G1 X56.438 Y74.975 E.01821
G1 X53.789 Y77.624 E.1151
G1 X53.414 Y77.407 E.01333
G1 X56.314 Y74.507 E.12601
G1 X55.938 Y74.29 E.01333
G1 X53.038 Y77.19 E.12601
G1 X52.662 Y76.973 E.01333
G1 X55.562 Y74.073 E.12601
G1 X55.187 Y73.856 E.01333
G1 X52.477 Y76.566 E.11775
G1 X52.477 Y75.974 E.01821
G1 X54.811 Y73.64 E.10143
G1 X54.457 Y73.435 E.01254
G1 X54.375 Y73.483 E.00294
G1 X52.477 Y75.381 E.08247
G1 X52.477 Y74.789 E.01821
G1 X53.436 Y73.829 E.04169
M204 P1000
G1 E-2.24 F2400
;WIPE_START
G1 F7200
G1 X52.477 Y74.789 E-.4297
G1 X52.477 Y75.381 E-.18763
G1 X53.135 Y74.723 E-.29467
;WIPE_END
G1 E-.048 F2400
G1 Z.4 F720
G1 X56.777 Y103.908 F9000
G1 Z.2 F720
G1 E3.2 F1500
M204 P800
G1 F1200
G1 X56.777 Y106.587 E.08232
G1 X54.457 Y107.926 E.08232
G1 X52.137 Y106.587 E.08232
G1 X52.137 Y103.908 E.08232
G1 X54.457 Y102.569 E.08232
G1 X56.729 Y103.88 E.08058
M204 P1000
G1 X55.945 Y106.871 F9000
M204 P800
G1 F1200
G1 X56.438 Y106.379 E.02141
G1 X56.438 Y105.786 E.01821
G1 X55.007 Y107.217 E.06219
G1 X54.457 Y107.535 E.0195
G1 X54.229 Y107.403 E.0081
G1 X56.438 Y105.194 E.09599
G1 X56.438 Y104.601 E.01821
G1 X53.853 Y107.186 E.11232
G1 X53.478 Y106.969 E.01333
G1 X56.378 Y104.069 E.12601
G1 X56.002 Y103.852 E.01333
G1 X53.102 Y106.752 E.12601
G1 X52.727 Y106.535 E.01333
G1 X55.626 Y103.635 E.12601
G1 X55.251 Y103.418 E.01333
G1 X52.477 Y106.192 E.12054
G1 X52.477 Y105.6 E.01821
G1 X54.875 Y103.202 E.10421
G1 X54.499 Y102.985 E.01333
G1 X52.477 Y105.007 E.08789
G1 X52.477 Y104.415 E.01821
G1 X53.676 Y103.216 E.05209
M204 P1000
G1 E-2.24 F2400
;WIPE_START
G1 F7200
G1 X52.477 Y104.415 E-.53687
G1 X52.477 Y105.007 E-.18763
G1 X52.896 Y104.589 E-.1875
;WIPE_END
G1 E-.048 F2400
G1 Z.4 F720
G1 X127.908 Y103.908 F9000
G1 Z.2 F720
G1 E3.2 F1500
M204 P800
G1 F1200
G1 X127.908 Y106.587 E.08232
G1 X125.587 Y107.926 E.08232
G1 X123.267 Y106.587 E.08232
G1 X123.267 Y103.908 E.08232
G1 X125.587 Y102.569 E.08232
G1 X127.859 Y103.88 E.08058
M204 P1000
G1 X127.011 Y106.909 F9000
M204 P800
G1 F1200
G1 X127.568 Y106.351 E.02421
G1 X127.568 Y105.759 E.01821
G1 X126.073 Y107.254 E.06499
G1 X125.587 Y107.535 E.01721
G1 X125.342 Y107.393 E.00872
G1 X127.568 Y105.166 E.09674
G1 X127.568 Y104.574 E.01821
G1 X124.966 Y107.176 E.11307
G1 X124.591 Y106.959 E.01333
G1 X127.49 Y104.059 E.12601
G1 X127.115 Y103.842 E.01333
G1 X124.215 Y106.742 E.12601
G1 X123.839 Y106.525 E.01333
G1 X126.739 Y103.625 E.12601
G1 X126.363 Y103.408 E.01333
G1 X123.607 Y106.165 E.11979
G1 X123.607 Y105.573 E.01821
G1 X125.988 Y103.192 E.10346
G1 X125.612 Y102.975 E.01333
G1 X123.607 Y104.98 E.08714
G1 X123.607 Y104.387 E.01821
G1 X124.741 Y103.253 E.04929
M204 P1000
G1 E-2.24 F2400
;WIPE_START
G1 F7200
G1 X123.607 Y104.387 E-.50801
G1 X123.607 Y104.98 E-.18763
G1 X124.09 Y104.497 E-.21635
;WIPE_END
G1 E-.048 F2400
G1 Z.4 F720
G1 X127.908 Y74.383 F9000
G1 Z.2 F720
G1 E3.2 F1500
M204 P800
G1 F1200
G1 X127.908 Y77.062 E.08232
G1 X125.587 Y78.401 E.08232
G1 X123.267 Y77.062 E.08232
G1 X123.267 Y74.383 E.08232
G1 X125.587 Y73.044 E.08232
G1 X127.859 Y74.355 E.08058
M204 P1000
G1 X126.772 Y77.522 F9000
M204 P800
G1 F1200
G1 X127.568 Y76.725 E.03461
G1 X127.568 Y76.133 E.01821
G1 X125.833 Y77.868 E.07539
G1 X125.587 Y78.01 E.00872
G1 X125.278 Y77.831 E.01099
G1 X127.568 Y75.54 E.09953
G1 X127.568 Y74.948 E.01821
G1 X124.902 Y77.614 E.11585
G1 X124.526 Y77.397 E.01333
G1 X127.426 Y74.497 E.12601
G1 X127.051 Y74.28 E.01333
G1 X124.151 Y77.18 E.12601
G1 X123.775 Y76.963 E.01333
G1 X126.675 Y74.063 E.12601
G1 X126.299 Y73.846 E.01333
G1 X123.607 Y76.539 E.117
G1 X123.607 Y75.946 E.01821
G1 X125.924 Y73.63 E.10068
G1 X125.587 Y73.435 E.01193
G1 X125.44 Y73.52 E.00522
G1 X123.607 Y75.354 E.07967
G1 X123.607 Y74.761 E.01821
G1 X124.502 Y73.866 E.0389
M204 P1000
G1 E-2.24 F2400
;WIPE_START
G1 F7200
G1 X123.607 Y74.761 E-.40084
G1 X123.607 Y75.354 E-.18763
G1 X124.329 Y74.631 E-.32353
;WIPE_END
G1 E-.048 F2400
G1 Z.4 F720
G1 X125.588 Y101.106 F9000
G1 Z.2 F720
G1 E3.2 F1500
M204 P800
;TYPE:Perimeter
G1 F1200
G1 X129.175 Y103.177 E.12727
G1 X129.175 Y107.319 E.12727
G1 X125.587 Y109.39 E.12727
G1 X122 Y107.319 E.12727
G1 X122 Y103.177 E.12727
G1 X125.536 Y101.136 E.12543
M204 P1000
G1 X125.587 Y101.541 F9000
M204 P800
;TYPE:External perimeter
G1 F1200
G1 X128.797 Y103.394 E.11389
G1 X128.797 Y107.101 E.11389
M73 P0 R76
G1 X125.587 Y108.954 E.11389
G1 X122.377 Y107.101 E.11389
G1 X122.377 Y103.394 E.11389
G1 X125.536 Y101.571 E.11205
M204 P1000
G1 X125.787 Y101.195 F9000
M73 P1 R76
G1 E-2.24 F2400
;WIPE_START
G1 F7200
G1 X128.049 Y102.976 E-.912
;WIPE_END
G1 E-.048 F2400
G1 Z.4 F720
G1 X58.045 Y103.177 F9000
G1 Z.2 F720
G1 E3.2 F1500
M204 P800
;TYPE:Perimeter
G1 F1200
G1 X58.045 Y107.319 E.12727
G1 X54.457 Y109.39 E.12727
G1 X50.87 Y107.319 E.12727
G1 X50.87 Y103.177 E.12727
G1 X54.457 Y101.106 E.12727
G1 X57.993 Y103.147 E.12543
M204 P1000
G1 X57.667 Y103.394 F9000
M204 P800
;TYPE:External perimeter
G1 F1200
G1 X57.667 Y107.101 E.11389
G1 X54.457 Y108.954 E.11389
G1 X51.247 Y107.101 E.11389
G1 X51.247 Y103.394 E.11389
G1 X54.457 Y101.541 E.11389
G1 X57.616 Y103.364 E.11205
M204 P1000
G1 X58.067 Y103.394 F9000
G1 E-2.24 F2400
;WIPE_START
G1 F7200
G1 X57.656 Y106.244 E-.912
;WIPE_END
G1 E-.048 F2400
G1 Z.4 F720
G1 X119.902 Y71.63 F9000
G1 Z.2 F720
G1 E3.2 F1500
M204 P800
;TYPE:Perimeter
G1 F1200
G1 X125.502 Y71.63 E.17208
G1 X122 Y73.652 E.12426
G1 X122 Y77.794 E.12727
G1 X125.587 Y79.865 E.12727
G1 X129.175 Y77.794 E.12727
G1 X129.175 Y73.652 E.12727
G1 X125.673 Y71.63 E.12426
G1 X127.848 Y71.63 E.06684
G1 X128.339 Y71.918 E.0175
G1 X128.632 Y72.136 E.01122
G1 X128.906 Y72.377 E.01122
G1 X129.16 Y72.639 E.01122
G1 X129.392 Y72.921 E.01122
G1 X129.6 Y73.221 E.01122
G1 X129.783 Y73.537 E.01122
G1 X129.94 Y73.866 E.01122
G1 X130.07 Y74.207 E.01122
G1 X130.172 Y74.558 E.01122
G1 X130.246 Y74.915 E.01122
G1 X130.29 Y75.278 E.01122
G1 X130.305 Y75.658 E.01171
G1 X130.305 Y105.341 E.91207
G1 X130.289 Y105.73 E.01196
G1 X130.243 Y106.1 E.01146
G1 X130.167 Y106.465 E.01146
G1 X130.06 Y106.823 E.01146
G1 X129.925 Y107.17 E.01146
G1 X129.761 Y107.505 E.01146
G1 X129.57 Y107.825 E.01146
G1 X129.353 Y108.129 E.01146
G1 X129.112 Y108.414 E.01146
G1 X128.849 Y108.677 E.01146
G1 X128.564 Y108.918 E.01146
G1 X128.26 Y109.135 E.01146
G1 X127.94 Y109.326 E.01146
G1 X127.605 Y109.49 E.01146
G1 X127.258 Y109.625 E.01146
G1 X126.9 Y109.732 E.01146
G1 X126.535 Y109.808 E.01146
G1 X126.165 Y109.854 E.01146
G1 X125.776 Y109.87 E.01196
G1 X54.224 Y109.87 E2.19861
G1 X53.835 Y109.854 E.01196
G1 X53.465 Y109.808 E.01146
G1 X53.1 Y109.732 E.01146
G1 X52.742 Y109.625 E.01146
G1 X52.395 Y109.49 E.01146
G1 X52.06 Y109.326 E.01146
G1 X51.74 Y109.135 E.01146
G1 X51.436 Y108.918 E.01146
G1 X51.151 Y108.677 E.01146
G1 X50.888 Y108.414 E.01146
G1 X50.647 Y108.129 E.01146
G1 X50.43 Y107.825 E.01146
G1 X50.239 Y107.505 E.01146
G1 X50.075 Y107.17 E.01146
G1 X49.94 Y106.823 E.01146
G1 X49.833 Y106.465 E.01146
G1 X49.757 Y106.1 E.01146
G1 X49.711 Y105.73 E.01146
G1 X49.695 Y105.341 E.01196
G1 X49.695 Y75.658 E.91207
G1 X49.71 Y75.278 E.01171
G1 X49.754 Y74.915 E.01122
G1 X49.828 Y74.558 E.01122
G1 X49.93 Y74.207 E.01122
G1 X50.06 Y73.866 E.01122
G1 X50.217 Y73.537 E.01122
G1 X50.4 Y73.221 E.01122
G1 X50.608 Y72.921 E.01122
G1 X50.84 Y72.639 E.01122
G1 X51.094 Y72.377 E.01122
G1 X51.368 Y72.136 E.01122
G1 X51.661 Y71.918 E.01122
G1 X52.152 Y71.63 E.0175
G1 X54.372 Y71.63 E.06822
G1 X50.87 Y73.652 E.12426
G1 X50.87 Y77.794 E.12727
G1 X54.457 Y79.865 E.12727
G1 X58.045 Y77.794 E.12727
G1 X58.045 Y73.652 E.12727
G1 X54.543 Y71.63 E.12426
G1 X60.133 Y71.63 E.17177
G1 X60.138 Y70.134 E.04596
G1 X79.257 Y70.13 E.5875
G1 X79.262 Y71.63 E.04608
G1 X95.693 Y71.63 E.50486
G1 X95.698 Y70.13 E.04609
G1 X119.897 Y70.13 E.74359
G1 X119.902 Y71.57 E.04425
M204 P1000
G1 E-2.24 F2400
;WIPE_START
G1 F7200
G1 X122.782 Y71.6 E-.912
;WIPE_END
G1 E-.048 F2400
G1 Z.4 F720
G1 X122.377 Y73.869 F9000
G1 Z.2 F720
G1 E3.2 F1500
M204 P800
;TYPE:External perimeter
G1 F1200
G1 X125.587 Y72.016 E.11389
G1 X128.797 Y73.869 E.11389
G1 X128.797 Y77.576 E.11389
G1 X125.587 Y79.429 E.11389
G1 X122.377 Y77.576 E.11389
G1 X122.377 Y73.929 E.11205
M204 P1000
G1 X122.177 Y73.523 F9000
G1 E-2.24 F2400
;WIPE_START
G1 F7200
G1 X124.851 Y72.455 E-.912
;WIPE_END
G1 E-.048 F2400
G1 Z.4 F720
G1 X57.667 Y73.929 F9000
G1 Z.2 F720
G1 E3.2 F1500
M204 P800
G1 F1200
G1 X57.667 Y77.576 E.11205
G1 X54.457 Y79.429 E.11389
G1 X51.247 Y77.576 E.11389
G1 X51.247 Y73.869 E.11389
G1 X54.457 Y72.016 E.11389
G1 X57.667 Y73.869 E.11389
M204 P1000
G1 X58.067 Y73.93 F9000
G1 E-2.24 F2400
;WIPE_START
G1 F7200
G1 X57.667 Y76.749 E-.912
;WIPE_END
G1 E-.048 F2400
G1 Z.4 F720
G1 X120.278 Y71.253 F9000
G1 Z.2 F720
G1 E3.2 F1500
M204 P800
G1 F1200
G1 X127.94 Y71.253 E.23542
G1 X128.217 Y71.396 E.00959
G1 X128.552 Y71.606 E.01215
G1 X128.87 Y71.842 E.01216
G1 X129.167 Y72.104 E.01215
G1 X129.442 Y72.388 E.01216
G1 X129.693 Y72.694 E.01216
G1 X129.918 Y73.018 E.01216
G1 X130.117 Y73.361 E.01216
G1 X130.287 Y73.718 E.01215
G1 X130.428 Y74.087 E.01215
G1 X130.539 Y74.467 E.01216
G1 X130.618 Y74.855 E.01216
G1 X130.666 Y75.247 E.01216
G1 X130.683 Y75.651 E.01241
G1 X130.683 Y105.349 E.91254
G1 X130.665 Y105.761 E.01268
G1 X130.615 Y106.162 E.01242
G1 X130.533 Y106.558 E.01242
G1 X130.417 Y106.945 E.01242
G1 X130.27 Y107.322 E.01242
G1 X130.093 Y107.685 E.01242
G1 X129.886 Y108.032 E.01242
G1 X129.651 Y108.361 E.01242
G1 X129.39 Y108.669 E.01242
G1 X129.104 Y108.955 E.01242
G1 X128.796 Y109.216 E.01242
G1 X128.467 Y109.451 E.01242
G1 X128.12 Y109.658 E.01242
G1 X127.757 Y109.835 E.01242
G1 X127.38 Y109.982 E.01242
G1 X126.993 Y110.098 E.01242
G1 X126.597 Y110.18 E.01242
G1 X126.196 Y110.23 E.01242
G1 X125.784 Y110.248 E.01268
G1 X54.216 Y110.248 E2.19909
G1 X53.804 Y110.23 E.01268
G1 X53.403 Y110.18 E.01242
G1 X53.007 Y110.098 E.01242
G1 X52.62 Y109.982 E.01242
G1 X52.243 Y109.835 E.01242
G1 X51.88 Y109.658 E.01242
G1 X51.533 Y109.451 E.01242
G1 X51.204 Y109.216 E.01242
G1 X50.896 Y108.955 E.01242
G1 X50.61 Y108.669 E.01242
G1 X50.349 Y108.361 E.01242
G1 X50.114 Y108.032 E.01242
G1 X49.907 Y107.685 E.01242
G1 X49.73 Y107.322 E.01242
G1 X49.583 Y106.945 E.01242
G1 X49.467 Y106.558 E.01242
G1 X49.385 Y106.162 E.01242
G1 X49.335 Y105.761 E.01242
G1 X49.317 Y105.349 E.01268
G1 X49.317 Y75.651 E.91254
G1 X49.334 Y75.247 E.01241
G1 X49.382 Y74.855 E.01216
G1 X49.461 Y74.467 E.01216
G1 X49.572 Y74.087 E.01215
G1 X49.713 Y73.718 E.01216
G1 X49.883 Y73.361 E.01216
G1 X50.082 Y73.018 E.01215
G1 X50.307 Y72.693 E.01216
G1 X50.558 Y72.388 E.01215
G1 X50.833 Y72.104 E.01216
G1 X51.131 Y71.842 E.01215
G1 X51.448 Y71.606 E.01216
G1 X51.783 Y71.396 E.01216
G1 X52.06 Y71.253 E.00959
G1 X59.757 Y71.253 E.23649
G1 X59.762 Y69.829 E.04376
G1 X59.786 Y69.781 E.00165
G1 X59.833 Y69.757 E.00163
G1 X79.529 Y69.753 E.60521
G1 X79.591 Y69.768 E.00196
G1 X79.633 Y69.829 E.00226
G1 X79.638 Y71.253 E.04376
G1 X95.317 Y71.253 E.48176
G1 X95.322 Y69.829 E.04376
G1 X95.364 Y69.768 E.00226
G1 X95.431 Y69.753 E.00212
G1 X120.164 Y69.753 E.76
G1 X120.239 Y69.772 E.00237
G1 X120.273 Y69.837 E.00226
G1 X120.278 Y71.193 E.04165
M204 P1000
G1 X120.282 Y71.652 F9000
G1 E-2.24 F2400
;WIPE_START
G1 F7200
G1 X123.158 Y71.215 E-.912
;WIPE_END
G1 E-.048 F2400
G1 Z.4 F720
G1 X127.821 Y71.745 F9000
G1 Z.2 F720
G1 E3.2 F1500
M204 P800
;TYPE:Solid infill
;WIDTH:0.495415
G1 F1200
G1 X129.114 Y73.038 E.06744
G1 X128.897 Y73.164 E.00928
G1 X128.196 Y72.76 E.02981
G1 X127.179 Y71.743 E.05306
M204 P1000
G1 E-2.24 F2400
;WIPE_START
G1 F7200
G1 X128.196 Y72.76 E-.45569
G1 X128.897 Y73.164 E-.25603
G1 X129.114 Y73.038 E-.07972
G1 X128.845 Y72.769 E-.12056
;WIPE_END
G1 E-.048 F2400
G1 Z.4 F720
G1 X129.295 Y73.261 F9000
G1 Z.2 F720
G1 E3.2 F1500
M204 P800
;TYPE:Gap fill
;WIDTH:0.23361
G1 F1200
G1 X129.567 Y73.73 E.00843
M204 P1000
G1 E-2.24 F2400
;WIPE_START
G1 F7200
G1 X129.295 Y73.261 E-.17185
;WIPE_END
G1 E-.78815 F2400
G1 Z.4 F720
G1 X130.123 Y74.881 F9000
G1 Z.2 F720
G1 E3.2 F1500
M204 P800
;TYPE:Solid infill
;WIDTH:0.421279
G1 F1200
G1 X129.457 Y74.215 E.02904
G1 X129.457 Y74.75 E.0165
G1 X130.008 Y75.301 E.02401
G1 X130.023 Y75.851 E.01696
G1 X129.457 Y75.285 E.02465
G1 X129.457 Y75.821 E.0165
G1 X130.023 Y76.386 E.02465
G1 X130.023 Y76.921 E.0165
G1 X129.457 Y76.356 E.02465
G1 X129.457 Y76.891 E.0165
