; generated by PrusaSlicer 2.4.2+win64 on 2022-04-29 at 16:57:34 UTC


;
;

;
;
; 

; external perimeters extrusion width = 0.45mm
; perimeters extrusion width = 0.45mm
; infill extrusion width = 0.45mm
; solid infill extrusion width = 0.45mm
; top infill extrusion width = 0.40mm
; support material extrusion width = 0.35mm
; first layer extrusion width = 0.42mm

; external perimeters extrusion width = 0.45mm
; perimeters extrusion width = 0.45mm
; infill extrusion width = 0.45mm
; solid infill extrusion width = 0.45mm
; top infill extrusion width = 0.40mm
; support material extrusion width = 0.35mm
; first layer extrusion width = 0.42mm

M73 P0 R98
M201 X2500 Y2500 Z400 E5000 ; sets maximum accelerations, mm/sec^2
M203 X180 Y180 Z12 E80 ; sets maximum feedrates, mm / sec
M204 P1250 R1250 T2500 ; sets acceleration (P, T) and retract acceleration (R), mm/sec^2
M205 X8.00 Y8.00 Z2.00 E10.00 ; sets the jerk limits, mm/sec
M205 S0 T0 ; sets the minimum extruding and travel feed rate, mm/sec
M107
;TYPE:Custom
M862.3 P "MINI" ; printer model check
G90 ; use absolute coordinates
M83 ; extruder relative mode
M104 S170 ; set extruder temp for bed leveling
M140 S85 ; set bed temp
M109 R170 ; wait for bed leveling temp
M190 S85 ; wait for bed temp
M204 T1250 ; set travel acceleration
G28 ; home all without mesh bed level
G29 ; mesh bed leveling 
M204 T2500 ; restore travel acceleration
M104 S240 ; set extruder temp
G92 E0
G1 Y-2 X179 F2400
G1 Z3 F720
M109 S240 ; wait for extruder temp

; intro line
G1 X170 F1000
G1 Z0.2 F720
G1 X110 E8 F900
G1 X40 E10 F700
G92 E0

M221 S95 ; set flow
G21 ; set units to millimeters
G90 ; use absolute coordinates
M83 ; use relative distances for extrusion
M900 K0.2 ; Filament gcode
M107
;LAYER_CHANGE
;Z:0.2
;HEIGHT:0.2
;BEFORE_LAYER_CHANGE
G92 E0.0
;0.2


G1 E-3.2 F2400
G1 Z.2 F720
;AFTER_LAYER_CHANGE
;0.2
G1 Z.4
G1 X48.544 Y47.545 F9000
G1 Z.2 F720
G1 E3.2 F1500
M204 P800
;TYPE:Skirt/Brim
;WIDTH:0.42
G1 F1200
G1 X49.452 Y46.7 E.03813
G1 X50.318 Y46.107 E.03224
G1 X50.866 Y45.815 E.01908
G1 X51.96 Y45.548 E.03461
G1 X128.04 Y45.548 E2.33771
G1 X129.134 Y45.815 E.03461
G1 X130.204 Y46.443 E.03813
G1 X131.019 Y47.104 E.03224
G1 X131.857 Y48.019 E.03813
G1 X132.32 Y48.687 E.02498
G1 X132.886 Y49.792 E.03813
G1 X133.219 Y50.787 E.03224
G1 X133.383 Y51.583 E.02498
G1 X133.47 Y52.725 E.03519
G1 X133.468 Y82.518 E.91547
G1 X131.987 Y127.385 E1.37937
G1 X131.861 Y128.521 E.03513
G1 X131.529 Y129.615 E.03513
G1 X131.001 Y130.629 E.03513
G1 X130.296 Y131.529 E.03513
G1 X129.613 Y132.152 E.02841
G1 X128.96 Y132.599 E.02432
G1 X127.593 Y133.203 E.04591
G1 X120.758 Y134.452 E.21352
G1 X59.278 Y134.452 E1.88911
G1 X52.407 Y133.203 E.21458
G1 X51.04 Y132.6 E.04591
M73 P0 R97
G1 X49.953 Y131.779 E.04184
G1 X49.198 Y130.92 E.03513
G1 X48.613 Y129.938 E.03513
G1 X48.219 Y128.865 E.03513
G1 X48.029 Y127.737 E.03513
G1 X46.532 Y82.518 E1.39021
G1 X46.55 Y52.2 E.93159
G1 X46.734 Y50.973 E.03813
G1 X47.19 Y49.615 E.04401
G1 X47.783 Y48.525 E.03814
G1 X48.507 Y47.592 E.03629
M204 P1000
; printing object wifi-board-case-minimal-lid-v23 id:1 copy 0
G1 E-2.24 F2400
;WIPE_START
G1 F7200
G1 X49.452 Y46.7 E-.41171
G1 X50.318 Y46.107 E-.33226
G1 X50.786 Y45.857 E-.16803
;WIPE_END
G1 E-.048 F2400
G1 Z.4 F720
G1 X125.38 Y116.285 F9000
G1 Z.2 F720
G1 E3.2 F1500
M204 P800
;TYPE:External perimeter
G1 F1200
G1 X125.655 Y116.126 E.00974
G1 X125.941 Y116.075 E.00893
G1 X127.717 Y116.085 E.0546
G1 X127.888 Y116.131 E.00543
G1 X128.155 Y116.285 E.00947
G1 X128.353 Y116.521 E.00947
G1 X128.428 Y116.681 E.00544
G1 X128.478 Y116.958 E.00864
G1 X128.468 Y118.735 E.0546
G1 X128.422 Y118.905 E.0054
G1 X128.288 Y119.142 E.00835
G1 X128.156 Y119.282 E.00592
G1 X128.023 Y119.375 E.00497
G1 X127.871 Y119.445 E.00516
G1 X127.594 Y119.495 E.00864
G1 X125.808 Y119.485 E.05488
G1 X125.511 Y119.377 E.00974
G1 X125.275 Y119.179 E.00947
G1 X125.178 Y119.041 E.00517
G1 X125.107 Y118.889 E.00516
G1 X125.057 Y118.612 E.00864
G1 X125.068 Y116.826 E.05488
G1 X125.176 Y116.528 E.00973
G1 X125.341 Y116.331 E.00791
M204 P1000
G1 X125.325 Y115.973 F9000
G1 E-2.24 F2400
;WIPE_START
G1 F7200
G1 X125.655 Y116.126 E-.11844
G1 X125.941 Y116.075 E-.09204
G1 X127.717 Y116.085 E-.56265
G1 X127.888 Y116.131 E-.056
G1 X128.115 Y116.262 E-.08287
;WIPE_END
G1 E-.048 F2400
G1 Z.4 F720
G1 X108.13 Y115.073 F9000
G1 Z.2 F720
G1 E3.2 F1500
M204 P800
;TYPE:Perimeter
G1 F1200
G1 X108.13 Y120.347 E.16206
G1 X101.555 Y120.347 E.20201
G1 X101.555 Y115.073 E.16206
G1 X108.07 Y115.073 E.20016
M204 P1000
G1 X107.752 Y115.45 F9000
M204 P800
;TYPE:External perimeter
G1 F1200
G1 X107.752 Y119.97 E.13889
G1 X101.933 Y119.97 E.17883
G1 X101.933 Y115.45 E.13889
G1 X107.692 Y115.45 E.17699
M204 P1000
G1 X108.143 Y115.363 F9000
G1 E-2.24 F2400
;WIPE_START
G1 F7200
G1 X107.731 Y118.33 E-.912
;WIPE_END
G1 E-.048 F2400
G1 Z.4 F720
G1 X114.665 Y115.073 F9000
G1 Z.2 F720
G1 E3.2 F1500
M204 P800
;TYPE:Perimeter
G1 F1200
G1 X121.24 Y115.073 E.20201
G1 X121.24 Y120.347 E.16206
G1 X114.665 Y120.347 E.20201
G1 X114.665 Y115.133 E.16022
M204 P1000
G1 X115.043 Y115.45 F9000
M204 P800
;TYPE:External perimeter
G1 F1200
G1 X120.863 Y115.45 E.17883
G1 X120.863 Y119.97 E.13889
G1 X115.043 Y119.97 E.17883
G1 X115.043 Y115.51 E.13704
M204 P1000
G1 X114.923 Y115.068 F9000
G1 E-2.24 F2400
;WIPE_START
G1 F7200
G1 X117.922 Y115.48 E-.912
;WIPE_END
G1 E-.048 F2400
G1 Z.4 F720
G1 X81.92 Y102.288 F9000
G1 Z.2 F720
G1 E3.2 F1500
M204 P800
;TYPE:Perimeter
G1 F1200
G1 X81.92 Y120.689 E.5654
G1 X56.255 Y120.689 E.78863
G1 X56.255 Y107.689 E.39946
G1 X60.054 Y107.689 E.11675
G1 X60.054 Y102.288 E.16594
G1 X81.86 Y102.288 E.67004
M204 P1000
G1 X81.543 Y102.665 F9000
M204 P800
;TYPE:External perimeter
G1 F1200
G1 X81.543 Y120.312 E.54223
G1 X56.632 Y120.312 E.76546
G1 X56.632 Y108.066 E.37628
G1 X60.431 Y108.066 E.11675
G1 X60.431 Y102.665 E.16594
G1 X81.483 Y102.665 E.64687
M204 P1000
G1 X81.942 Y102.632 F9000
G1 E-2.24 F2400
;WIPE_START
G1 F7200
G1 X81.493 Y105.545 E-.912
;WIPE_END
G1 E-.048 F2400
G1 Z.4 F720
G1 X125.134 Y115.992 F9000
G1 Z.2 F720
G1 E3.2 F1500
M204 P800
;TYPE:Perimeter
G1 F1200
G1 X124.844 Y116.337 E.01384
G1 X124.691 Y116.758 E.01379
G1 X124.68 Y118.645 E.05796
G1 X124.745 Y119.004 E.01121
G1 X124.85 Y119.23 E.00768
G1 X124.994 Y119.436 E.00771
G1 X125.319 Y119.708 E.01303
G1 X125.741 Y119.862 E.01379
G1 X127.627 Y119.872 E.05796
G1 X127.986 Y119.808 E.01122
G1 X128.213 Y119.702 E.00768
G1 X128.404 Y119.569 E.00717
G1 X128.594 Y119.367 E.00852
G1 X128.774 Y119.049 E.01123
G1 X128.825 Y118.856 E.00612
G1 X128.825 Y127.257 E.25812
G1 X128.812 Y127.555 E.00916
G1 X128.773 Y127.834 E.00866
G1 X128.709 Y128.105 E.00856
G1 X128.62 Y128.37 E.0086
G1 X128.506 Y128.628 E.00866
G1 X128.37 Y128.871 E.00856
G1 X128.212 Y129.102 E.0086
G1 X128.033 Y129.318 E.00861
G1 X127.835 Y129.516 E.00861
G1 X127.62 Y129.695 E.00861
G1 X127.389 Y129.853 E.00861
G1 X127.144 Y129.989 E.00861
G1 X126.888 Y130.102 E.00861
G1 X126.622 Y130.191 E.00861
G1 X126.35 Y130.255 E.0086
G1 X126.072 Y130.294 E.00861
G1 X125.774 Y130.308 E.00918
G1 X121 Y130.317 E.14668
G1 X120.745 Y130.385 E.00811
G1 X120.399 Y130.585 E.01229
G1 X120.125 Y130.912 E.01309
G1 X119.988 Y131.288 E.01231
G1 X95.607 Y131.288 E.74916
G1 X95.479 Y130.936 E.0115
G1 X95.327 Y130.719 E.00813
G1 X95.041 Y130.479 E.01148
G1 X94.802 Y130.368 E.00809
G1 X94.469 Y130.308 E.01042
G1 X80.486 Y130.308 E.42964
G1 X80.153 Y130.368 E.01042
G1 X79.938 Y130.468 E.00729
G1 X79.742 Y130.605 E.00734
G1 X79.485 Y130.912 E.01229
G1 X79.348 Y131.288 E.01231
G1 X60.047 Y131.288 E.59306
G1 X59.919 Y130.936 E.0115
G1 X59.767 Y130.72 E.00813
G1 X59.461 Y130.462 E.01229
G1 X59.061 Y130.317 E.01308
G1 X54.226 Y130.308 E.14856
G1 X53.928 Y130.294 E.00918
G1 X53.65 Y130.255 E.00861
G1 X53.378 Y130.191 E.00861
G1 X53.112 Y130.102 E.00861
G1 X52.856 Y129.989 E.00861
G1 X52.611 Y129.853 E.00861
G1 X52.38 Y129.695 E.00861
G1 X52.165 Y129.516 E.00861
G1 X51.967 Y129.318 E.00861
G1 X51.788 Y129.102 E.00861
G1 X51.63 Y128.871 E.00861
G1 X51.493 Y128.627 E.00861
G1 X51.38 Y128.37 E.00861
G1 X51.291 Y128.105 E.00861
G1 X51.227 Y127.832 E.00861
G1 X51.188 Y127.555 E.0086
G1 X51.175 Y127.257 E.00917
G1 X51.175 Y97.578 E.91194
G1 X51.188 Y97.28 E.00917
G1 X51.227 Y97.003 E.00861
G1 X51.291 Y96.73 E.0086
G1 X51.38 Y96.465 E.00861
G1 X51.493 Y96.208 E.00861
G1 X51.63 Y95.964 E.00861
G1 X51.788 Y95.733 E.0086
G1 X51.967 Y95.517 E.0086
G1 X52.166 Y95.318 E.00866
G1 X52.38 Y95.14 E.00855
G1 X52.611 Y94.982 E.00861
G1 X52.856 Y94.846 E.0086
G1 X53.112 Y94.733 E.00861
G1 X53.378 Y94.644 E.0086
G1 X53.65 Y94.58 E.00861
G1 X53.928 Y94.541 E.00861
G1 X54.226 Y94.527 E.00917
G1 X125.781 Y94.527 E2.19869
G1 X126.072 Y94.541 E.00897
M73 P1 R97
G1 X126.35 Y94.58 E.00861
G1 X126.622 Y94.644 E.00861
G1 X126.888 Y94.733 E.00861
G1 X127.144 Y94.846 E.00861
G1 X127.389 Y94.982 E.00861
G1 X127.62 Y95.14 E.00861
G1 X127.835 Y95.319 E.00861
G1 X128.033 Y95.517 E.00861
G1 X128.212 Y95.733 E.00861
G1 X128.37 Y95.964 E.00861
G1 X128.507 Y96.208 E.0086
G1 X128.62 Y96.465 E.00861
G1 X128.709 Y96.73 E.00861
G1 X128.773 Y97.003 E.00861
G1 X128.812 Y97.28 E.00861
G1 X128.825 Y97.578 E.00917
G1 X128.825 Y101.403 E.11752
G1 X120.645 Y101.403 E.25135
G1 X120.645 Y112.067 E.32768
G1 X128.825 Y112.067 E.25135
G1 X128.825 Y116.762 E.14425
G1 X128.79 Y116.566 E.00609
G1 X128.674 Y116.317 E.00847
G1 X128.401 Y115.992 E.01303
G1 X128.034 Y115.78 E.01303
G1 X127.768 Y115.708 E.00845
G1 X125.908 Y115.698 E.05715
G1 X125.523 Y115.767 E.01202
G1 X125.186 Y115.962 E.01197
M204 P1000
G1 E-2.24 F2400
;WIPE_START
G1 F7200
G1 X124.844 Y116.337 E-.16061
G1 X124.691 Y116.758 E-.14208
G1 X124.68 Y118.645 E-.59731
G1 X124.687 Y118.682 E-.012
;WIPE_END
G1 E-.048 F2400
G1 Z.4 F720
G1 X121.022 Y101.78 F9000
G1 Z.2 F720
G1 E3.2 F1500
M204 P800
;TYPE:External perimeter
G1 F1200
G1 X121.022 Y111.69 E.30451
G1 X129.202 Y111.69 E.25135
G1 X129.202 Y127.266 E.47859
G1 X129.188 Y127.59 E.00997
G1 X129.144 Y127.903 E.00973
G1 X129.072 Y128.208 E.00962
G1 X128.972 Y128.507 E.00967
G1 X128.844 Y128.796 E.00973
G1 X128.691 Y129.07 E.00962
G1 X128.513 Y129.33 E.00968
G1 X128.312 Y129.572 E.00968
G1 X128.09 Y129.795 E.00968
G1 X127.847 Y129.996 E.00968
G1 X127.587 Y130.174 E.00968
G1 X127.312 Y130.327 E.00968
G1 X127.024 Y130.454 E.00968
G1 X126.726 Y130.554 E.00968
G1 X126.419 Y130.627 E.00968
G1 X126.107 Y130.67 E.00968
G1 X125.783 Y130.685 E.00997
G1 X121.05 Y130.694 E.14542
G1 X120.891 Y130.737 E.00507
G1 X120.645 Y130.878 E.00872
G1 X120.457 Y131.103 E.00901
G1 X120.357 Y131.376 E.00894
G1 X120.351 Y131.665 E.00887
G1 X95.244 Y131.665 E.7715
G1 X95.238 Y131.376 E.00887
G1 X95.142 Y131.112 E.00866
G1 X95.047 Y130.976 E.00508
G1 X94.837 Y130.8 E.00843
G1 X94.687 Y130.73 E.00506
G1 X94.435 Y130.685 E.00788
G1 X80.52 Y130.685 E.42757
G1 X80.268 Y130.73 E.00788
G1 X80.127 Y130.796 E.00478
G1 X79.999 Y130.886 E.0048
G1 X79.817 Y131.103 E.00872
G1 X79.717 Y131.376 E.00894
G1 X79.711 Y131.665 E.00887
G1 X59.684 Y131.665 E.6154
G1 X59.678 Y131.376 E.00887
G1 X59.582 Y131.112 E.00865
G1 X59.487 Y130.976 E.00508
G1 X59.27 Y130.794 E.00872
G1 X58.994 Y130.694 E.009
G1 X54.217 Y130.685 E.14679
G1 X53.893 Y130.67 E.00997
G1 X53.581 Y130.627 E.00968
G1 X53.274 Y130.554 E.00968
G1 X52.976 Y130.454 E.00968
G1 X52.688 Y130.327 E.00968
G1 X52.413 Y130.174 E.00968
G1 X52.153 Y129.996 E.00968
G1 X51.911 Y129.795 E.00968
G1 X51.688 Y129.572 E.00968
G1 X51.487 Y129.33 E.00968
G1 X51.309 Y129.07 E.00968
G1 X51.155 Y128.795 E.00968
G1 X51.028 Y128.507 E.00968
G1 X50.928 Y128.208 E.00968
G1 X50.856 Y127.901 E.00968
G1 X50.812 Y127.59 E.00968
G1 X50.798 Y127.266 E.00997
G1 X50.798 Y97.569 E.91248
G1 X50.812 Y97.245 E.00997
G1 X50.856 Y96.933 E.00968
G1 X50.928 Y96.627 E.00968
G1 X51.028 Y96.328 E.00968
G1 X51.155 Y96.04 E.00968
G1 X51.309 Y95.765 E.00968
G1 X51.487 Y95.505 E.00968
G1 X51.688 Y95.263 E.00968
G1 X51.912 Y95.039 E.00973
G1 X52.153 Y94.839 E.00962
G1 X52.413 Y94.661 E.00968
G1 X52.688 Y94.508 E.00968
G1 X52.976 Y94.381 E.00968
G1 X53.274 Y94.281 E.00968
G1 X53.581 Y94.208 E.00968
G1 X53.893 Y94.165 E.00968
G1 X54.217 Y94.15 E.00997
G1 X125.789 Y94.15 E2.19922
G1 X126.107 Y94.165 E.00977
G1 X126.419 Y94.208 E.00968
G1 X126.726 Y94.281 E.00968
G1 X127.024 Y94.381 E.00968
G1 X127.312 Y94.508 E.00968
G1 X127.587 Y94.661 E.00968
G1 X127.847 Y94.839 E.00968
G1 X128.09 Y95.04 E.00968
G1 X128.312 Y95.263 E.00968
G1 X128.513 Y95.505 E.00968
G1 X128.691 Y95.765 E.00968
G1 X128.845 Y96.04 E.00968
G1 X128.972 Y96.328 E.00968
G1 X129.072 Y96.627 E.00968
G1 X129.144 Y96.933 E.00968
G1 X129.188 Y97.245 E.00968
G1 X129.202 Y97.569 E.00997
G1 X129.202 Y101.78 E.12937
G1 X121.082 Y101.78 E.24951
M204 P1000
G1 X120.627 Y101.843 F9000
G1 E-2.24 F2400
;WIPE_START
G1 F7200
G1 X121.065 Y104.66 E-.912
;WIPE_END
G1 E-.048 F2400
G1 Z.4 F720
G1 X127.038 Y94.923 F9000
G1 Z.2 F720
G1 E3.2 F1500
M204 P800
;TYPE:Solid infill
;WIDTH:0.420964
G1 F1200
G1 X127.828 Y95.712 E.03441
G1 X127.986 Y95.903 E.00764
G1 X128.253 Y96.335 E.01563
G1 X128.356 Y96.567 E.00782
G1 X128.451 Y96.871 E.00981
G1 X126.482 Y94.901 E.08581
G1 X126.298 Y94.858 E.00583
G1 X125.86 Y94.814 E.01354
G1 X128.538 Y97.492 E.11668
G1 X128.543 Y98.031 E.0166
G1 X125.322 Y94.81 E.14033
G1 X124.787 Y94.81 E.01647
G1 X128.543 Y98.566 E.16362
G1 X128.543 Y99.101 E.01647
G1 X124.252 Y94.81 E.18691
G1 X123.718 Y94.81 E.01647
G1 X128.543 Y99.635 E.21021
G1 X128.543 Y100.17 E.01647
G1 X123.183 Y94.81 E.2335
G1 X122.648 Y94.81 E.01647
G1 X128.543 Y100.704 E.25679
G1 X128.543 Y101.12 E.0128
G1 X128.424 Y101.12 E.00367
G1 X122.114 Y94.81 E.2749
G1 X121.579 Y94.81 E.01647
G1 X127.889 Y101.12 E.2749
G1 X127.354 Y101.12 E.01647
G1 X121.044 Y94.81 E.2749
G1 X120.51 Y94.81 E.01647
G1 X126.82 Y101.12 E.2749
G1 X126.285 Y101.12 E.01647
G1 X119.975 Y94.81 E.2749
G1 X119.441 Y94.81 E.01647
G1 X125.75 Y101.12 E.2749
G1 X125.216 Y101.12 E.01647
G1 X118.906 Y94.81 E.2749
G1 X118.371 Y94.81 E.01647
G1 X124.681 Y101.12 E.2749
G1 X124.146 Y101.12 E.01647
G1 X117.837 Y94.81 E.2749
G1 X117.302 Y94.81 E.01647
G1 X123.612 Y101.12 E.2749
G1 X123.077 Y101.12 E.01647
G1 X116.767 Y94.81 E.2749
G1 X116.233 Y94.81 E.01647
G1 X122.543 Y101.12 E.2749
G1 X122.008 Y101.12 E.01647
G1 X115.698 Y94.81 E.2749
G1 X115.163 Y94.81 E.01647
G1 X121.473 Y101.12 E.2749
G1 X120.939 Y101.12 E.01647
G1 X114.629 Y94.81 E.2749
G1 X114.094 Y94.81 E.01647
G1 X120.404 Y101.12 E.2749
G1 X120.363 Y101.12 E.00128
G1 X120.363 Y101.613 E.01519
G1 X113.559 Y94.81 E.29638
G1 X113.025 Y94.81 E.01647
G1 X120.363 Y102.148 E.31967
G1 X120.363 Y102.682 E.01647
G1 X112.49 Y94.81 E.34297
G1 X111.956 Y94.81 E.01647
M73 P1 R96
G1 X120.363 Y103.217 E.36626
G1 X120.363 Y103.752 E.01647
G1 X111.421 Y94.81 E.38955
G1 X110.886 Y94.81 E.01647
G1 X120.363 Y104.286 E.41284
G1 X120.363 Y104.821 E.01647
G1 X110.352 Y94.81 E.43613
G1 X109.817 Y94.81 E.01647
G1 X120.363 Y105.356 E.45943
G1 X120.363 Y105.89 E.01647
G1 X109.282 Y94.81 E.48272
G1 X108.748 Y94.81 E.01647
G1 X120.363 Y106.425 E.50601
G1 X120.363 Y106.96 E.01647
G1 X108.213 Y94.81 E.5293
G1 X107.678 Y94.81 E.01647
G1 X120.363 Y107.494 E.55259
G1 X120.363 Y108.029 E.01647
G1 X107.144 Y94.81 E.57589
G1 X106.609 Y94.81 E.01647
G1 X120.363 Y108.563 E.59918
G1 X120.363 Y109.098 E.01647
G1 X106.075 Y94.81 E.62247
G1 X105.54 Y94.81 E.01647
G1 X120.363 Y109.633 E.64576
G1 X120.363 Y110.167 E.01647
G1 X105.005 Y94.81 E.66905
G1 X104.471 Y94.81 E.01647
G1 X120.363 Y110.702 E.69235
G1 X120.363 Y111.237 E.01647
G1 X103.936 Y94.81 E.71564
G1 X103.401 Y94.81 E.01647
G1 X120.532 Y111.941 E.74632
M204 P1000
G1 E-2.24 F2400
;WIPE_START
G1 F7200
G1 X118.496 Y109.904 E-.912
;WIPE_END
G1 E-.048 F2400
G1 Z.4 F720
G1 X128.256 Y112.18 F9000
G1 Z.2 F720
G1 E3.2 F1500
M204 P800
G1 F1200
G1 X128.543 Y112.466 E.01247
G1 X128.543 Y113.001 E.01647
G1 X127.891 Y112.35 E.02837
G1 X127.357 Y112.35 E.01647
G1 X128.543 Y113.536 E.05167
G1 X128.543 Y114.07 E.01647
G1 X126.822 Y112.35 E.07496
G1 X126.287 Y112.35 E.01647
G1 X128.543 Y114.605 E.09825
G1 X128.543 Y115.14 E.01647
