; generated by PrusaSlicer 2.4.2+win64 on 2022-04-29 at 16:59:04 UTC


;
;

;
;
; 

; external perimeters extrusion width = 0.45mm
; perimeters extrusion width = 0.45mm
; infill extrusion width = 0.45mm
; solid infill extrusion width = 0.45mm
; top infill extrusion width = 0.40mm
; support material extrusion width = 0.35mm
; first layer extrusion width = 0.42mm

M73 P0 R69
M201 X2500 Y2500 Z400 E5000 ; sets maximum accelerations, mm/sec^2
M203 X180 Y180 Z12 E80 ; sets maximum feedrates, mm / sec
M204 P1250 R1250 T2500 ; sets acceleration (P, T) and retract acceleration (R), mm/sec^2
M205 X8.00 Y8.00 Z2.00 E10.00 ; sets the jerk limits, mm/sec
M205 S0 T0 ; sets the minimum extruding and travel feed rate, mm/sec
M107
;TYPE:Custom
M862.3 P "MINI" ; printer model check
G90 ; use absolute coordinates
M83 ; extruder relative mode
M104 S170 ; set extruder temp for bed leveling
M140 S85 ; set bed temp
M109 R170 ; wait for bed leveling temp
M190 S85 ; wait for bed temp
M204 T1250 ; set travel acceleration
G28 ; home all without mesh bed level
G29 ; mesh bed leveling 
M204 T2500 ; restore travel acceleration
M104 S240 ; set extruder temp
G92 E0
G1 Y-2 X179 F2400
G1 Z3 F720
M109 S240 ; wait for extruder temp

; intro line
G1 X170 F1000
G1 Z0.2 F720
G1 X110 E8 F900
G1 X40 E10 F700
G92 E0

M221 S95 ; set flow
G21 ; set units to millimeters
G90 ; use absolute coordinates
M83 ; use relative distances for extrusion
M900 K0.2 ; Filament gcode
M107
;LAYER_CHANGE
;Z:0.2
;HEIGHT:0.2
;BEFORE_LAYER_CHANGE
G92 E0.0
;0.2


G1 E-3.2 F2400
M73 P0 R68
G1 Z.2 F720
;AFTER_LAYER_CHANGE
;0.2
G1 Z.4
G1 X49.452 Y69.617 F9000
G1 Z.2 F720
G1 E3.2 F1500
M204 P800
;TYPE:Skirt/Brim
;WIDTH:0.42
G1 F1200
G1 X50.318 Y69.025 E.03224
G1 X50.866 Y68.732 E.01908
G1 X51.514 Y68.508 E.02106
G1 X59.847 Y66.965 E.26043
G1 X120.368 Y66.972 E1.85962
G1 X128.488 Y68.508 E.25395
G1 X129.515 Y68.93 E.03409
G1 X130.712 Y69.751 E.04463
G1 X131.456 Y70.462 E.03162
G1 X131.973 Y71.09 E.02498
G1 X132.536 Y71.976 E.03224
G1 X132.886 Y72.709 E.02498
G1 X133.352 Y74.311 E.05125
G1 X133.47 Y75.643 E.04108
G1 X133.433 Y106.089 E.93554
G1 X133.257 Y107.146 E.03293
G1 X133.02 Y107.942 E.02552
G1 X132.589 Y108.924 E.03293
G1 X132.164 Y109.638 E.02552
G1 X131.063 Y110.938 E.05235
G1 X130.429 Y111.474 E.02552
G1 X129.532 Y112.061 E.03294
G1 X128.786 Y112.426 E.02552
G1 X127.772 Y112.774 E.03293
G1 X126.959 Y112.944 E.02552
G1 X125.793 Y113.035 E.03595
G1 X54.109 Y113.033 E2.20263
G1 X53.041 Y112.944 E.03293
G1 X52.228 Y112.774 E.02552
G1 X51.035 Y112.347 E.03895
G1 X50.092 Y111.837 E.03293
G1 X49.416 Y111.354 E.02552
G1 X48.627 Y110.628 E.03293
G1 X48.09 Y109.994 E.02553
G1 X47.504 Y109.097 E.03293
G1 X47.139 Y108.351 E.02552
G1 X46.791 Y107.337 E.03293
G1 X46.621 Y106.524 E.02552
G1 X46.532 Y105.456 E.03294
G1 X46.55 Y75.118 E.9322
G1 X46.648 Y74.311 E.02498
G1 X46.9 Y73.292 E.03224
G1 X47.19 Y72.533 E.02498
G1 X47.68 Y71.605 E.03224
G1 X48.143 Y70.937 E.02498
G1 X48.842 Y70.154 E.03224
G1 X49.407 Y69.657 E.02314
M204 P1000
; printing object wifi-board-case-full-base-bottomheaders-v23 id:0 copy 0
G1 E-2.24 F2400
;WIPE_START
G1 F7200
G1 X50.318 Y69.025 E-.3511
G1 X50.866 Y68.732 E-.19664
G1 X51.514 Y68.508 E-.217
G1 X51.971 Y68.423 E-.14726
;WIPE_END
G1 E-.048 F2400
G1 Z.4 F720
G1 X56.777 Y74.383 F9000
G1 Z.2 F720
G1 E3.2 F1500
M204 P800
;TYPE:Support material
G1 F1200
G1 X56.777 Y77.062 E.08232
G1 X54.457 Y78.401 E.08232
G1 X52.137 Y77.062 E.08232
G1 X52.137 Y74.383 E.08232
G1 X54.457 Y73.044 E.08232
G1 X56.729 Y74.355 E.08058
M204 P1000
G1 X55.706 Y77.485 F9000
M204 P800
G1 F1200
G1 X56.438 Y76.753 E.03181
G1 X56.438 Y76.16 E.01821
G1 X54.768 Y77.83 E.07259
G1 X54.457 Y78.01 E.01101
G1 X54.165 Y77.841 E.01038
G1 X56.438 Y75.568 E.09878
G1 X56.438 Y74.975 E.01821
G1 X53.789 Y77.624 E.1151
G1 X53.414 Y77.407 E.01333
G1 X56.314 Y74.507 E.12601
G1 X55.938 Y74.29 E.01333
G1 X53.038 Y77.19 E.12601
G1 X52.662 Y76.973 E.01333
G1 X55.562 Y74.073 E.12601
G1 X55.187 Y73.856 E.01333
G1 X52.477 Y76.566 E.11775
G1 X52.477 Y75.974 E.01821
G1 X54.811 Y73.64 E.10143
G1 X54.457 Y73.435 E.01254
G1 X54.375 Y73.483 E.00294
G1 X52.477 Y75.381 E.08247
G1 X52.477 Y74.789 E.01821
G1 X53.436 Y73.829 E.04169
M204 P1000
G1 E-2.24 F2400
;WIPE_START
G1 F7200
G1 X52.477 Y74.789 E-.4297
G1 X52.477 Y75.381 E-.18763
G1 X53.135 Y74.723 E-.29467
;WIPE_END
G1 E-.048 F2400
G1 Z.4 F720
G1 X63.046 Y103.952 F9000
G1 Z.2 F720
G1 E3.2 F1500
M204 P800
G1 F1200
G1 X61.973 Y105.026 E.04664
G1 X63.046 Y106.099 E.04664
G1 X60.267 Y108.878 E.12075
G1 X57.99 Y108.871 E.06997
G1 X57.982 Y106.665 E.06779
G1 X57.701 Y106.384 E.01222
G1 X57.194 Y106.384 E.01555
G1 X57.072 Y106.417 E.00388
G1 X54.457 Y107.926 E.09277
G1 X52.137 Y106.587 E.08232
G1 X52.137 Y103.908 E.08232
G1 X54.457 Y102.569 E.08232
G1 X57.072 Y104.078 E.09277
G1 X57.194 Y104.111 E.00388
G1 X57.701 Y104.111 E.01555
G1 X57.982 Y103.83 E.01222
G1 X57.982 Y102.448 E.04247
G1 X57.995 Y102.41 E.00124
G1 X61.5 Y102.407 E.10769
G1 X63.006 Y103.912 E.06542
M204 P1000
G1 X59.442 Y108.708 F9000
M204 P800
G1 F1200
G1 X62.308 Y105.841 E.12457
G1 X62.012 Y105.545 E.01287
G1 X59.019 Y108.538 E.13007
G1 X58.426 Y108.538 E.01821
G1 X61.716 Y105.249 E.14294
G1 X61.493 Y105.026 E.0097
G1 X62.566 Y103.952 E.04664
G1 X62.493 Y103.879 E.00318
G1 X58.321 Y108.051 E.18128
G1 X58.321 Y107.458 E.01821
G1 X62.197 Y103.583 E.16841
G1 X61.9 Y103.287 E.01287
G1 X58.321 Y106.866 E.15553
G1 X58.321 Y106.525 E.01048
G1 X58.195 Y106.399 E.00546
G1 X61.604 Y102.99 E.14812
G1 X61.36 Y102.746 E.01061
G1 X61.256 Y102.746 E.0032
G1 X57.899 Y106.103 E.14586
G1 X57.841 Y106.045 E.00252
G1 X57.365 Y106.045 E.01464
G1 X60.663 Y102.746 E.14334
G1 X60.071 Y102.746 E.01821
G1 X56.409 Y106.408 E.15912
G1 X55.007 Y107.217 E.04974
G1 X59.478 Y102.746 E.19429
G1 X58.886 Y102.746 E.01821
G1 X58.151 Y103.48 E.03191
M204 P1000
G1 X54.105 Y107.527 F9000
M204 P800
G1 F1200
G1 X57.181 Y104.45 E.13369
G1 X56.941 Y104.394 E.00758
G1 X56.753 Y104.286 E.00667
G1 X53.853 Y107.186 E.12601
G1 X53.478 Y106.969 E.01333
G1 X56.378 Y104.069 E.12601
G1 X56.002 Y103.852 E.01333
G1 X53.102 Y106.752 E.12601
G1 X52.727 Y106.535 E.01333
G1 X55.626 Y103.635 E.12601
G1 X55.251 Y103.418 E.01333
G1 X52.477 Y106.192 E.12054
G1 X52.477 Y105.6 E.01821
G1 X54.875 Y103.202 E.10421
G1 X54.499 Y102.985 E.01333
G1 X52.477 Y105.007 E.08789
G1 X52.477 Y104.415 E.01821
G1 X53.676 Y103.216 E.05209
M204 P1000
G1 E-2.24 F2400
;WIPE_START
G1 F7200
G1 X52.477 Y104.415 E-.53687
G1 X52.477 Y105.007 E-.18763
G1 X52.896 Y104.589 E-.1875
;WIPE_END
G1 E-.048 F2400
G1 Z.4 F720
G1 X127.908 Y103.908 F9000
G1 Z.2 F720
G1 E3.2 F1500
M204 P800
G1 F1200
G1 X127.908 Y106.587 E.08232
G1 X125.587 Y107.926 E.08232
G1 X123.267 Y106.587 E.08232
M73 P1 R68
G1 X123.267 Y103.908 E.08232
G1 X125.587 Y102.569 E.08232
G1 X127.859 Y103.88 E.08058
M204 P1000
G1 X127.011 Y106.909 F9000
M204 P800
G1 F1200
G1 X127.568 Y106.351 E.02421
G1 X127.568 Y105.759 E.01821
G1 X126.073 Y107.254 E.06499
G1 X125.587 Y107.535 E.01721
G1 X125.342 Y107.393 E.00872
G1 X127.568 Y105.166 E.09674
G1 X127.568 Y104.574 E.01821
G1 X124.966 Y107.176 E.11307
G1 X124.591 Y106.959 E.01333
G1 X127.49 Y104.059 E.12601
G1 X127.115 Y103.842 E.01333
G1 X124.215 Y106.742 E.12601
G1 X123.839 Y106.525 E.01333
G1 X126.739 Y103.625 E.12601
G1 X126.363 Y103.408 E.01333
G1 X123.607 Y106.165 E.11979
G1 X123.607 Y105.573 E.01821
G1 X125.988 Y103.192 E.10346
G1 X125.612 Y102.975 E.01333
G1 X123.607 Y104.98 E.08714
G1 X123.607 Y104.387 E.01821
G1 X124.741 Y103.253 E.04929
M204 P1000
G1 E-2.24 F2400
;WIPE_START
G1 F7200
G1 X123.607 Y104.387 E-.50801
G1 X123.607 Y104.98 E-.18763
G1 X124.09 Y104.497 E-.21635
;WIPE_END
G1 E-.048 F2400
G1 Z.4 F720
G1 X127.908 Y74.383 F9000
G1 Z.2 F720
G1 E3.2 F1500
M204 P800
G1 F1200
G1 X127.908 Y77.062 E.08232
G1 X125.587 Y78.401 E.08232
G1 X123.267 Y77.062 E.08232
G1 X123.267 Y74.383 E.08232
G1 X125.587 Y73.044 E.08232
G1 X127.859 Y74.355 E.08058
M204 P1000
G1 X126.772 Y77.522 F9000
M204 P800
G1 F1200
G1 X127.568 Y76.725 E.03461
G1 X127.568 Y76.133 E.01821
G1 X125.833 Y77.868 E.07539
G1 X125.587 Y78.01 E.00872
G1 X125.278 Y77.831 E.01099
G1 X127.568 Y75.54 E.09953
G1 X127.568 Y74.948 E.01821
G1 X124.902 Y77.614 E.11585
G1 X124.526 Y77.397 E.01333
G1 X127.426 Y74.497 E.12601
G1 X127.051 Y74.28 E.01333
G1 X124.151 Y77.18 E.12601
G1 X123.775 Y76.963 E.01333
G1 X126.675 Y74.063 E.12601
G1 X126.299 Y73.846 E.01333
G1 X123.607 Y76.539 E.117
G1 X123.607 Y75.946 E.01821
G1 X125.924 Y73.63 E.10068
G1 X125.587 Y73.435 E.01193
G1 X125.44 Y73.52 E.00522
G1 X123.607 Y75.354 E.07967
G1 X123.607 Y74.761 E.01821
G1 X124.502 Y73.866 E.0389
M204 P1000
G1 E-2.24 F2400
;WIPE_START
G1 F7200
G1 X123.607 Y74.761 E-.40084
G1 X123.607 Y75.354 E-.18763
G1 X124.329 Y74.631 E-.32352
;WIPE_END
G1 E-.048 F2400
G1 Z.4 F720
G1 X57.092 Y107.433 F9000
G1 Z.2 F720
G1 E3.2 F1500
M204 P800
;TYPE:External perimeter
G1 F1200
G1 X54.457 Y108.954 E.09346
G1 X51.247 Y107.101 E.11389
G1 X51.247 Y103.394 E.11389
G1 X54.457 Y101.541 E.11389
G1 X57.092 Y103.062 E.09346
G1 X57.092 Y102.399 E.02036
G1 X57.141 Y102.123 E.00862
G1 X57.216 Y101.963 E.00544
G1 X57.414 Y101.727 E.00946
G1 X57.689 Y101.568 E.00974
G1 X57.974 Y101.517 E.00891
G1 X75.309 Y101.517 E.53265
G1 X75.585 Y101.566 E.00862
G1 X75.746 Y101.641 E.00544
G1 X75.982 Y101.839 E.00947
G1 X76.14 Y102.114 E.00974
G1 X76.192 Y102.399 E.00891
G1 X76.192 Y108.885 E.19929
G1 X76.142 Y109.161 E.00862
G1 X76.067 Y109.322 E.00544
G1 X75.869 Y109.558 E.00947
G1 X75.595 Y109.716 E.00974
G1 X75.309 Y109.768 E.00891
G1 X57.974 Y109.768 E.53265
G1 X57.689 Y109.716 E.00891
G1 X57.422 Y109.562 E.00945
G1 X57.297 Y109.437 E.00545
G1 X57.143 Y109.17 E.00946
G1 X57.092 Y108.885 E.00891
G1 X57.092 Y107.493 E.04276
M204 P1000
G1 X56.838 Y107.742 F9000
G1 E-2.24 F2400
;WIPE_START
G1 F7200
G1 X54.573 Y108.89 E-.912
;WIPE_END
G1 E-.048 F2400
G1 Z.4 F720
G1 X54.457 Y79.429 F9000
G1 Z.2 F720
G1 E3.2 F1500
M204 P800
G1 F1200
G1 X51.247 Y77.576 E.11389
G1 X51.247 Y73.869 E.11389
G1 X54.457 Y72.016 E.11389
G1 X57.667 Y73.869 E.11389
G1 X57.667 Y77.576 E.11389
G1 X54.509 Y79.399 E.11205
M204 P1000
G1 X54.258 Y79.775 F9000
G1 E-2.24 F2400
;WIPE_START
G1 F7200
G1 X51.996 Y77.994 E-.912
;WIPE_END
G1 E-.048 F2400
G1 Z.4 F720
G1 X82.229 Y80.396 F9000
G1 Z.2 F720
G1 E3.2 F1500
M204 P800
;TYPE:Perimeter
G1 F1200
G1 X82.586 Y80.332 E.01116
G1 X94.908 Y80.332 E.37859
G1 X94.682 Y80.227 E.00766
G1 X94.4 Y79.995 E.01121
G1 X94.234 Y79.772 E.00854
G1 X94.125 Y79.538 E.00794
G1 X94.06 Y79.18 E.01118
G1 X94.07 Y74.477 E.14452
G1 X94.224 Y74.054 E.01382
G1 X94.514 Y73.709 E.01384
G1 X94.903 Y73.484 E.01381
G1 X95.286 Y73.415 E.01197
G1 X120.308 Y73.415 E.76886
G1 X120.692 Y73.484 E.01197
G1 X121.058 Y73.696 E.013
G1 X121.254 Y73.891 E.0085
G1 X121.466 Y74.258 E.013
G1 X121.534 Y74.641 E.01197
G1 X121.534 Y81.784 E.21946
G1 X121.47 Y82.141 E.01116
G1 X121.354 Y82.391 E.00847
G1 X121.081 Y82.716 E.01303
G1 X120.692 Y82.941 E.01381
G1 X120.308 Y83.01 E.01197
G1 X100.063 Y83.01 E.62209
G1 X99.683 Y82.941 E.01188
G1 X99.343 Y82.75 E.01198
G1 X99.141 Y82.559 E.00854
G1 X98.992 Y82.346 E.00797
G1 X98.848 Y81.949 E.01298
G1 X98.839 Y80.406 E.04741
G1 X96.064 Y80.406 E.08526
G1 X96.269 Y80.502 E.00696
G1 X96.475 Y80.646 E.00771
G1 X96.73 Y80.951 E.01223
G1 X96.847 Y81.201 E.00847
G1 X96.911 Y81.558 E.01116
G1 X96.911 Y101.5 E.61277
G1 X96.847 Y101.858 E.01116
G1 X96.73 Y102.108 E.00847
G1 X96.475 Y102.413 E.01223
G1 X96.269 Y102.557 E.00771
G1 X96.043 Y102.662 E.00768
G1 X95.685 Y102.726 E.01116
G1 X82.586 Y102.726 E.40249
G1 X82.229 Y102.662 E.01116
G1 X82.002 Y102.557 E.00768
G1 X81.797 Y102.413 E.00771
G1 X81.541 Y102.108 E.01223
G1 X81.425 Y101.858 E.00847
G1 X81.36 Y101.5 E.01116
G1 X81.36 Y81.558 E.61277
G1 X81.425 Y81.201 E.01116
G1 X81.54 Y80.953 E.00838
G1 X81.772 Y80.672 E.01121
G1 X81.995 Y80.506 E.00854
G1 X82.175 Y80.422 E.0061
M204 P1000
G1 X82.189 Y80.831 F9000
M204 P800
;TYPE:External perimeter
G1 F1200
G1 X82.344 Y80.759 E.00525
G1 X82.62 Y80.709 E.00862
G1 X95.652 Y80.709 E.40042
G1 X95.928 Y80.759 E.00862
G1 X96.08 Y80.83 E.00516
G1 X96.218 Y80.926 E.00517
G1 X96.41 Y81.155 E.00918
G1 X96.484 Y81.316 E.00544
G1 X96.534 Y81.592 E.00862
G1 X96.534 Y101.467 E.6107
G1 X96.484 Y101.743 E.00862
G1 X96.41 Y101.904 E.00544
G1 X96.218 Y102.132 E.00918
G1 X96.08 Y102.229 E.00517
G1 X95.928 Y102.3 E.00516
G1 X95.652 Y102.349 E.00862
G1 X82.62 Y102.349 E.40042
G1 X82.344 Y102.3 E.00862
G1 X82.192 Y102.229 E.00516
G1 X82.054 Y102.132 E.00517
G1 X81.862 Y101.904 E.00918
G1 X81.787 Y101.743 E.00544
G1 X81.738 Y101.467 E.00862
G1 X81.738 Y81.592 E.6107
G1 X81.787 Y81.316 E.00862
G1 X81.862 Y81.156 E.00541
G1 X82.034 Y80.947 E.00833
G1 X82.141 Y80.867 E.0041
M204 P1000
G1 X82.184 Y80.66 F9000
G1 E-2.24 F2400
;WIPE_START
G1 F7200
G1 X82.344 Y80.759 E-.07283
G1 X82.62 Y80.709 E-.08887
G1 X84.989 Y80.709 E-.75029
;WIPE_END
G1 E-.048 F2400
G1 Z.4 F720
G1 X99.214 Y80.155 F9000
G1 Z.2 F720
G1 E3.2 F1500
M204 P800
G1 F1200
G1 X99.194 Y80.078 E.00246
G1 X99.166 Y80.049 E.00124
G1 X99.089 Y80.029 E.00245
G1 X95.32 Y80.029 E.1158
G1 X95.044 Y79.98 E.00862
G1 X94.884 Y79.905 E.00541
G1 X94.675 Y79.733 E.00833
G1 X94.559 Y79.578 E.00595
G1 X94.487 Y79.423 E.00525
G1 X94.437 Y79.147 E.00863
G1 X94.447 Y74.543 E.14144
G1 X94.556 Y74.245 E.00975
G1 X94.76 Y74.002 E.00975
G1 X95.035 Y73.844 E.00974
G1 X95.32 Y73.792 E.00891
G1 X120.275 Y73.792 E.76679
G1 X120.56 Y73.844 E.00891
G1 X120.827 Y73.998 E.00945
G1 X120.952 Y74.123 E.00545
G1 X121.106 Y74.389 E.00945
G1 X121.157 Y74.675 E.00891
G1 X121.157 Y81.75 E.2174
G1 X121.108 Y82.026 E.00862
G1 X121.033 Y82.187 E.00544
G1 X120.835 Y82.423 E.00947
G1 X120.56 Y82.581 E.00974
G1 X120.275 Y82.633 E.00891
G1 X100.097 Y82.633 E.62002
G1 X99.812 Y82.581 E.00888
G1 X99.568 Y82.444 E.00861
G1 X99.428 Y82.311 E.00595
G1 X99.329 Y82.171 E.00526
G1 X99.224 Y81.882 E.00945
G1 X99.215 Y80.215 E.05121
M204 P1000
G1 X99.139 Y80.129 F9000
G1 E-2.24 F2400
;WIPE_START
G1 F7200
G1 X99.194 Y80.078 E-.04406
G1 X99.166 Y80.049 E-.01275
G1 X99.089 Y80.029 E-.0252
G1 X96.468 Y80.029 E-.82999
;WIPE_END
G1 E-.048 F2400
G1 Z.4 F720
G1 X80.836 Y81.397 F9000
G1 Z.2 F720
G1 E3.2 F1500
M204 P800
;TYPE:Perimeter
G1 F1200
G1 X80.624 Y81.764 E.013
G1 X80.428 Y81.959 E.0085
G1 X80.062 Y82.171 E.013
G1 X79.678 Y82.24 E.01197
G1 X59.736 Y82.24 E.61276
G1 X59.379 Y82.175 E.01116
G1 X59.129 Y82.059 E.00847
G1 X58.804 Y81.786 E.01303
G1 X58.579 Y81.397 E.01381
G1 X58.51 Y81.014 E.01197
G1 X58.51 Y74.641 E.1958
G1 X58.575 Y74.284 E.01116
M73 P1 R67
G1 X58.691 Y74.034 E.00847
G1 X58.964 Y73.709 E.01303
G1 X59.353 Y73.484 E.01381
G1 X59.736 Y73.415 E.01197
G1 X79.678 Y73.415 E.61277
G1 X80.062 Y73.484 E.01197
G1 X80.428 Y73.696 E.013
G1 X80.624 Y73.892 E.0085
G1 X80.836 Y74.258 E.013
G1 X80.904 Y74.641 E.01197
G1 X80.904 Y81.014 E.1958
G1 X80.846 Y81.338 E.01012
M204 P1000
G1 X80.322 Y81.532 F9000
M204 P800
;TYPE:External perimeter
G1 F1200
G1 X80.197 Y81.657 E.00545
G1 X79.93 Y81.811 E.00945
G1 X79.645 Y81.863 E.00891
G1 X59.77 Y81.863 E.6107
G1 X59.494 Y81.813 E.00862
G1 X59.333 Y81.738 E.00544
G1 X59.097 Y81.54 E.00947
G1 X58.939 Y81.266 E.00974
G1 X58.887 Y80.98 E.00891
G1 X58.887 Y74.675 E.19374
G1 X58.937 Y74.399 E.00862
G1 X59.012 Y74.238 E.00544
G1 X59.21 Y74.002 E.00947
G1 X59.485 Y73.844 E.00974
G1 X59.77 Y73.792 E.00891
G1 X79.645 Y73.792 E.6107
G1 X79.93 Y73.844 E.00891
G1 X80.197 Y73.998 E.00945
G1 X80.322 Y74.123 E.00545
G1 X80.476 Y74.39 E.00945
G1 X80.527 Y74.675 E.00891
G1 X80.527 Y80.98 E.19374
G1 X80.476 Y81.266 E.00891
G1 X80.352 Y81.48 E.00761
M204 P1000
G1 X80.392 Y81.695 F9000
G1 E-2.24 F2400
;WIPE_START
G1 F7200
G1 X80.197 Y81.657 E-.07471
G1 X79.93 Y81.811 E-.09743
G1 X79.645 Y81.863 E-.09185
G1 X77.599 Y81.863 E-.64801
;WIPE_END
G1 E-.048 F2400
G1 Z.4 F720
G1 X122 Y103.176 F9000
G1 Z.2 F720
G1 E3.2 F1500
M204 P800
;TYPE:Perimeter
G1 F1200
G1 X125.587 Y101.106 E.12727
G1 X129.175 Y103.176 E.12727
G1 X129.175 Y107.318 E.12727
G1 X125.587 Y109.39 E.12727
G1 X122 Y107.318 E.12727
