; generated by PrusaSlicer 2.4.2+win64 on 2022-04-29 at 16:58:24 UTC


;
;

;
;
; 

; external perimeters extrusion width = 0.45mm
; perimeters extrusion width = 0.45mm
; infill extrusion width = 0.45mm
; solid infill extrusion width = 0.45mm
; top infill extrusion width = 0.40mm
; support material extrusion width = 0.35mm
; first layer extrusion width = 0.42mm

M73 P0 R50
M201 X2500 Y2500 Z400 E5000 ; sets maximum accelerations, mm/sec^2
M203 X180 Y180 Z12 E80 ; sets maximum feedrates, mm / sec
M204 P1250 R1250 T2500 ; sets acceleration (P, T) and retract acceleration (R), mm/sec^2
M205 X8.00 Y8.00 Z2.00 E10.00 ; sets the jerk limits, mm/sec
M205 S0 T0 ; sets the minimum extruding and travel feed rate, mm/sec
M107
;TYPE:Custom
M862.3 P "MINI" ; printer model check
G90 ; use absolute coordinates
M83 ; extruder relative mode
M104 S170 ; set extruder temp for bed leveling
M140 S85 ; set bed temp
M109 R170 ; wait for bed leveling temp
M190 S85 ; wait for bed temp
M204 T1250 ; set travel acceleration
G28 ; home all without mesh bed level
G29 ; mesh bed leveling 
M204 T2500 ; restore travel acceleration
M104 S240 ; set extruder temp
G92 E0
G1 Y-2 X179 F2400
G1 Z3 F720
M109 S240 ; wait for extruder temp

; intro line
G1 X170 F1000
G1 Z0.2 F720
G1 X110 E8 F900
G1 X40 E10 F700
G92 E0

M221 S95 ; set flow
G21 ; set units to millimeters
G90 ; use absolute coordinates
M83 ; use relative distances for extrusion
M900 K0.2 ; Filament gcode
M107
;LAYER_CHANGE
;Z:0.2
;HEIGHT:0.2
;BEFORE_LAYER_CHANGE
G92 E0.0
;0.2


G1 E-3.2 F2400
G1 Z.2 F720
;AFTER_LAYER_CHANGE
;0.2
G1 Z.4
G1 X51.829 Y64.83 F9000
G1 Z.2 F720
G1 E3.2 F1500
M204 P800
;TYPE:Skirt/Brim
;WIDTH:0.42
G1 F1200
G1 X53.509 Y64.134 E.0559
G1 X126.491 Y64.134 E2.24251
G1 X128.171 Y64.83 E.0559
G1 X134.488 Y71.147 E.27449
G1 X135.183 Y72.746 E.05357
G1 X136.256 Y103.87 E.95693
G1 X135.561 Y105.633 E.05822
G1 X127.098 Y114.096 E.36777
G1 X125.417 Y114.793 E.0559
G1 X52.436 Y114.793 E2.24251
G1 X50.755 Y114.096 E.0559
M73 P0 R49
G1 X43.365 Y106.706 E.32113
G1 X42.669 Y105.026 E.0559
G1 X42.669 Y74.974 E.92339
G1 X43.365 Y73.294 E.0559
G1 X51.786 Y64.873 E.36593
M204 P1000
; printing object wifi-board-case-lid-base-topheadersv23 id:0 copy 0
G1 E-2.24 F2400
;WIPE_START
G1 F7200
G1 X53.509 Y64.134 E-.59372
G1 X54.514 Y64.134 E-.31828
;WIPE_END
G1 E-.048 F2400
G1 Z.4 F720
G1 X50.305 Y71.74 F9000
G1 Z.2 F720
G1 E3.2 F1500
M204 P800
;TYPE:Support material
G1 F1200
G1 X50.029 Y72.07 E.01321
G1 X49.806 Y72.398 E.0122
G1 X49.623 Y72.726 E.01152
G1 X49.462 Y73.089 E.0122
G1 X49.341 Y73.447 E.01161
G1 X49.239 Y73.873 E.01348
G1 X49.185 Y74.267 E.0122
G1 X49.167 Y74.647 E.01169
G1 X49.167 Y79.096 E.1367
M73 P1 R49
G1 X45.046 Y74.974 E.17909
G1 X48.954 Y71.067 E.1698
G1 X50.254 Y71.715 E.04464
M204 P1000
G1 E-2.24 F2400
;WIPE_START
G1 F7200
G1 X48.954 Y71.067 E-.46009
G1 X47.945 Y72.076 E-.45191
;WIPE_END
G1 E-.048 F2400
G1 Z.4 F720
G1 X48.492 Y78.181 F9000
G1 Z.2 F720
G1 E3.2 F1500
M204 P800
G1 F1200
G1 X48.828 Y77.845 E.01459
G1 X48.828 Y77.252 E.01821
G1 X48.316 Y77.764 E.02225
G1 X48.02 Y77.468 E.01287
G1 X48.828 Y76.66 E.03513
G1 X48.828 Y76.067 E.01821
G1 X47.723 Y77.172 E.048
G1 X47.427 Y76.876 E.01287
G1 X48.828 Y75.475 E.06088
G1 X48.828 Y74.882 E.01821
G1 X47.131 Y76.579 E.07375
G1 X46.835 Y76.283 E.01287
G1 X48.845 Y74.273 E.08735
G1 X48.904 Y73.819 E.01408
G1 X48.962 Y73.563 E.00805
G1 X46.538 Y75.987 E.10531
G1 X46.242 Y75.691 E.01287
G1 X49.286 Y72.647 E.13228
G1 X49.513 Y72.226 E.01468
G1 X49.769 Y71.852 E.01393
G1 X49.581 Y71.759 E.00643
G1 X45.946 Y75.394 E.15798
G1 X45.65 Y75.098 E.01287
G1 X49.312 Y71.435 E.15917
M204 P1000
G1 E-2.24 F2400
;WIPE_START
G1 F7200
G1 X47.276 Y73.472 E-.912
;WIPE_END
G1 E-.048 F2400
G1 Z.4 F720
G1 X57.834 Y68.689 F9000
G1 Z.2 F720
G1 E3.2 F1500
M204 P800
G1 F1200
G1 X63.046 Y73.901 E.22648
G1 X61.973 Y74.974 E.04664
G1 X63.046 Y76.048 E.04664
G1 X61.49 Y77.603 E.06759
G1 X57.259 Y77.601 E.13003
G1 X57.242 Y77.562 E.0013
G1 X57.242 Y76.709 E.02623
G1 X56.96 Y76.428 E.01222
G1 X55.532 Y76.428 E.0439
G1 X55.379 Y76.481 E.00498
G1 X55.09 Y76.709 E.0113
G1 X54.87 Y76.847 E.008
G1 X54.635 Y76.96 E.008
G1 X54.39 Y77.047 E.008
G1 X54.136 Y77.107 E.008
G1 X53.878 Y77.139 E.008
G1 X53.618 Y77.142 E.008
G1 X53.358 Y77.117 E.008
G1 X53.104 Y77.064 E.008
G1 X52.856 Y76.983 E.008
G1 X52.619 Y76.876 E.008
G1 X52.395 Y76.743 E.008
G1 X52.186 Y76.587 E.008
G1 X51.996 Y76.409 E.008
G1 X51.827 Y76.211 E.008
G1 X51.68 Y75.996 E.008
G1 X51.558 Y75.766 E.008
G1 X51.461 Y75.524 E.008
G1 X51.391 Y75.274 E.008
G1 X51.349 Y75.017 E.008
G1 X51.336 Y74.757 E.008
G1 X51.351 Y74.497 E.008
G1 X51.394 Y74.24 E.008
G1 X51.465 Y73.989 E.008
G1 X51.563 Y73.748 E.008
G1 X51.686 Y73.519 E.008
G1 X51.834 Y73.305 E.008
G1 X52.005 Y73.108 E.008
G1 X52.195 Y72.931 E.008
G1 X52.404 Y72.775 E.008
G1 X52.629 Y72.644 E.008
G1 X52.867 Y72.538 E.008
G1 X53.115 Y72.458 E.008
G1 X53.37 Y72.406 E.008
G1 X53.629 Y72.382 E.008
G1 X56.96 Y72.388 E.10235
G1 X57.242 Y72.106 E.01222
G1 X57.242 Y70.634 E.04525
G1 X56.96 Y70.353 E.01222
G1 X53.462 Y70.353 E.1075
G1 X53.06 Y70.372 E.01237
G1 X52.666 Y70.428 E.0122
G1 X52.301 Y70.514 E.01152
G1 X51.924 Y70.639 E.01221
G1 X51.561 Y70.798 E.0122
G1 X51.213 Y70.991 E.0122
G1 X50.885 Y71.214 E.0122
G1 X50.555 Y71.49 E.01321
G1 X49.882 Y70.139 E.04638
G1 X53.509 Y66.511 E.15763
G1 X54.583 Y67.584 E.04664
G1 X55.656 Y66.511 E.04664
G1 X57.794 Y68.649 E.09291
M204 P1000
G1 X61.09 Y77.434 F9000
M204 P800
G1 F1200
G1 X62.521 Y76.003 E.06218
G1 X62.225 Y75.706 E.01287
G1 X60.667 Y77.264 E.06768
G1 X60.074 Y77.264 E.01821
G1 X61.928 Y75.41 E.08056
G1 X61.632 Y75.114 E.01287
G1 X59.482 Y77.264 E.09343
G1 X58.889 Y77.264 E.01821
G1 X62.409 Y73.744 E.15294
G1 X62.113 Y73.448 E.01287
G1 X58.297 Y77.264 E.16582
G1 X57.704 Y77.264 E.01821
G1 X61.816 Y73.152 E.17869
G1 X61.52 Y72.856 E.01287
G1 X57.581 Y76.795 E.17118
G1 X57.581 Y76.568 E.00696
G1 X57.398 Y76.385 E.00795
G1 X61.224 Y72.559 E.16625
G1 X60.928 Y72.263 E.01287
G1 X57.102 Y76.089 E.16625
G1 X56.51 Y76.088 E.01818
G1 X60.631 Y71.967 E.1791
G1 X60.335 Y71.67 E.01287
G1 X55.918 Y76.088 E.19197
G1 X55.475 Y76.088 E.01361
G1 X55.245 Y76.168 E.00746
G1 X60.039 Y71.374 E.20831
G1 X59.743 Y71.078 E.01287
G1 X54.044 Y76.777 E.24763
G1 X53.855 Y76.8 E.00585
G1 X53.444 Y76.784 E.01265
G1 X59.446 Y70.782 E.26085
G1 X59.15 Y70.485 E.01287
G1 X52.972 Y76.663 E.26845
G1 X52.583 Y76.46 E.0135
G1 X56.316 Y72.727 E.16223
G1 X55.724 Y72.727 E.01821
G1 X52.26 Y76.191 E.15052
G1 X51.998 Y75.86 E.01296
G1 X55.131 Y72.727 E.13615
G1 X54.539 Y72.727 E.01821
G1 X51.802 Y75.463 E.11892
G1 X51.723 Y75.201 E.00843
G1 X51.688 Y74.985 E.00672
G1 X53.946 Y72.727 E.09812
G1 X53.642 Y72.722 E.00934
G1 X53.317 Y72.763 E.01007
G1 X51.517 Y74.564 E.07823
M204 P1000
G1 E-2.24 F2400
;WIPE_START
G1 F7200
G1 X53.317 Y72.763 E-.80625
G1 X53.642 Y72.722 E-.10373
G1 X53.648 Y72.722 E-.00202
;WIPE_END
G1 E-.048 F2400
G1 Z.4 F720
G1 X57.411 Y71.632 F9000
G1 Z.2 F720
G1 E3.2 F1500
M204 P800
G1 F1200
G1 X58.854 Y70.189 E.06268
G1 X58.558 Y69.893 E.01287
G1 X57.581 Y70.869 E.04244
G1 X57.581 Y70.493 E.01156
G1 X57.473 Y70.385 E.0047
G1 X58.261 Y69.597 E.03426
G1 X57.965 Y69.3 E.01287
G1 X57.177 Y70.089 E.03426
G1 X57.101 Y70.013 E.00329
G1 X56.66 Y70.013 E.01356
G1 X57.669 Y69.004 E.04385
G1 X57.373 Y68.708 E.01287
G1 X56.067 Y70.013 E.05672
G1 X55.475 Y70.013 E.01821
G1 X57.076 Y68.412 E.0696
G1 X56.78 Y68.115 E.01287
G1 X54.882 Y70.013 E.08247
G1 X54.29 Y70.013 E.01821
G1 X56.484 Y67.819 E.09534
G1 X56.188 Y67.523 E.01287
G1 X53.697 Y70.013 E.10822
G1 X53.088 Y70.03 E.01873
G1 X55.891 Y67.227 E.12182
G1 X55.656 Y66.991 E.01023
G1 X54.583 Y68.064 E.04664
G1 X54.522 Y68.004 E.00265
G1 X52.378 Y70.147 E.09314
G1 X51.809 Y70.32 E.01828
G1 X51.462 Y70.471 E.01165
G1 X54.225 Y67.707 E.1201
G1 X53.929 Y67.411 E.01287
G1 X50.574 Y70.766 E.14581
G1 X50.377 Y70.371 E.01358
G1 X53.753 Y66.995 E.14671
M204 P1000
G1 E-2.24 F2400
;WIPE_START
G1 F7200
G1 X51.716 Y69.031 E-.912
;WIPE_END
G1 E-.048 F2400
G1 Z.4 F720
G1 X53.914 Y101.914 F9000
G1 Z.2 F720
G1 E3.2 F1500
M204 P800
G1 F1200
G1 X54.174 Y101.95 E.00806
G1 X54.428 Y102.014 E.00806
G1 X54.674 Y102.106 E.00806
G1 X54.908 Y102.225 E.00806
G1 X55.128 Y102.368 E.00806
G1 X55.331 Y102.535 E.00806
G1 X55.514 Y102.723 E.00806
G1 X55.675 Y102.93 E.00806
G1 X55.812 Y103.154 E.00806
G1 X55.924 Y103.391 E.00806
G1 X56.009 Y103.639 E.00806
G1 X56.067 Y103.895 E.00806
G1 X56.096 Y104.156 E.00806
G1 X56.096 Y104.419 E.00806
G1 X56.067 Y104.68 E.00806
G1 X56.009 Y104.936 E.00806
G1 X55.924 Y105.184 E.00806
G1 X55.812 Y105.421 E.00806
G1 X55.675 Y105.645 E.00806
G1 X55.514 Y105.852 E.00806
G1 X55.331 Y106.04 E.00806
G1 X55.128 Y106.207 E.00806
G1 X54.908 Y106.35 E.00806
G1 X54.674 Y106.469 E.00806
G1 X54.429 Y106.561 E.00806
G1 X54.174 Y106.625 E.00806
G1 X53.914 Y106.661 E.00806
G1 X53.652 Y106.668 E.00806
G1 X53.39 Y106.647 E.00806
G1 X53.133 Y106.596 E.00806
G1 X52.882 Y106.518 E.00806
G1 X52.642 Y106.413 E.00806
G1 X52.415 Y106.281 E.00806
G1 X52.203 Y106.126 E.00806
G1 X52.01 Y105.948 E.00806
G1 X51.838 Y105.75 E.00806
G1 X51.688 Y105.535 E.00806
G1 X51.564 Y105.304 E.00806
G1 X51.465 Y105.061 E.00806
G1 X51.393 Y104.808 E.00806
G1 X51.35 Y104.55 E.00806
G1 X51.336 Y104.287 E.00806
G1 X51.35 Y104.025 E.00806
G1 X51.393 Y103.767 E.00806
G1 X51.465 Y103.514 E.00806
G1 X51.564 Y103.271 E.00806
G1 X51.688 Y103.04 E.00806
G1 X51.838 Y102.825 E.00806
G1 X52.01 Y102.627 E.00806
G1 X52.203 Y102.449 E.00806
G1 X52.415 Y102.294 E.00806
G1 X52.642 Y102.162 E.00806
G1 X52.882 Y102.057 E.00806
G1 X53.133 Y101.979 E.00806
G1 X53.39 Y101.928 E.00806
G1 X53.652 Y101.907 E.00806
G1 X53.858 Y101.912 E.00632
M204 P1000
G1 X53.964 Y106.483 F9000
M204 P800
G1 F1200
G1 X55.705 Y104.742 E.07567
G1 X55.756 Y104.4 E.01062
G1 X55.749 Y104.106 E.00905
G1 X53.536 Y106.318 E.09615
G1 X53.216 Y106.267 E.00995
G1 X53.048 Y106.214 E.00543
G1 X55.643 Y103.618 E.1128
G1 X55.452 Y103.217 E.01366
G1 X52.646 Y106.023 E.12195
G1 X52.419 Y105.864 E.00851
G1 X52.312 Y105.765 E.00449
G1 X55.195 Y102.882 E.12527
G1 X55.1 Y102.785 E.00415
G1 X54.875 Y102.609 E.00879
G1 X52.039 Y105.445 E.12325
G1 X51.831 Y105.061 E.01343
G1 X54.491 Y102.4 E.11561
G1 X54.327 Y102.339 E.00539
G1 X54.027 Y102.272 E.00945
G1 X51.702 Y104.597 E.10102
G1 X51.688 Y104.512 E.00264
G1 X51.676 Y104.287 E.00691
G1 X51.697 Y104.01 E.00856
G1 X53.628 Y102.079 E.0839
M204 P1000
G1 E-2.24 F2400
;WIPE_START
G1 F7200
G1 X51.697 Y104.01 E-.86466
G1 X51.685 Y104.159 E-.04734
;WIPE_END
G1 E-.048 F2400
G1 Z.4 F720
G1 X49.167 Y104.373 F9000
G1 Z.2 F720
G1 E3.2 F1500
M204 P800
G1 F1200
G1 X49.187 Y104.775 E.01237
G1 X49.239 Y105.147 E.01152
G1 X49.329 Y105.534 E.0122
G1 X49.462 Y105.931 E.01288
G1 X49.613 Y106.274 E.01152
G1 X49.806 Y106.622 E.0122
G1 X50.043 Y106.968 E.01288
G1 X50.282 Y107.256 E.01152
G1 X50.562 Y107.538 E.0122
G1 X50.885 Y107.806 E.01288
G1 X51.213 Y108.029 E.0122
G1 X51.541 Y108.212 E.01152
G1 X51.924 Y108.381 E.01288
G1 X52.301 Y108.506 E.0122
G1 X52.688 Y108.596 E.01221
G1 X53.082 Y108.65 E.0122
G1 X53.462 Y108.668 E.01169
G1 X58.057 Y108.668 E.14121
G1 X58.057 Y108.941 E.0084
G1 X54.583 Y112.416 E.151
G1 X53.509 Y111.342 E.04664
G1 X52.436 Y112.416 E.04664
G1 X45.046 Y105.026 E.32113
G1 X46.119 Y103.952 E.04664
G1 X45.046 Y102.879 E.04664
G1 X49.167 Y98.758 E.17909
G1 X49.167 Y104.316 E.17081
M204 P1000
G1 E-2.24 F2400
;WIPE_START
G1 F7200
G1 X49.167 Y101.436 E-.912
;WIPE_END
G1 E-.048 F2400
G1 Z.4 F720
G1 X54.389 Y111.982 F9000
G1 Z.2 F720
G1 E3.2 F1500
M204 P800
G1 F1200
G1 X57.365 Y109.007 E.1293
G1 X56.773 Y109.007 E.01821
G1 X54.213 Y111.566 E.11122
G1 X53.917 Y111.27 E.01287
G1 X56.18 Y109.007 E.09834
G1 X55.588 Y109.007 E.01821
G1 X53.621 Y110.974 E.08547
G1 X53.509 Y110.862 E.00484
G1 X52.436 Y111.936 E.04664
G1 X52.251 Y111.751 E.00804
G1 X54.995 Y109.007 E.11923
G1 X54.402 Y109.007 E.01821
G1 X51.955 Y111.454 E.10636
G1 X51.659 Y111.158 E.01287
G1 X53.81 Y109.007 E.09348
G1 X53.228 Y108.997 E.0179
G1 X51.362 Y110.862 E.08105
G1 X51.066 Y110.566 E.01287
G1 X52.692 Y108.94 E.07066
G1 X52.207 Y108.832 E.01527
G1 X50.77 Y110.269 E.06245
G1 X50.474 Y109.973 E.01287
G1 X51.764 Y108.682 E.05608
G1 X51.357 Y108.498 E.01375
G1 X50.177 Y109.677 E.05125
G1 X49.881 Y109.381 E.01287
G1 X50.98 Y108.282 E.04774
G1 X50.632 Y108.038 E.01307
G1 X49.585 Y109.084 E.04549
G1 X49.289 Y108.788 E.01287
G1 X50.311 Y107.766 E.04442
G1 X50.017 Y107.468 E.01287
G1 X48.992 Y108.492 E.04451
G1 X48.696 Y108.196 E.01287
G1 X49.75 Y107.142 E.04578
G1 X49.51 Y106.789 E.01311
G1 X48.4 Y107.899 E.04826
G1 X48.104 Y107.603 E.01287
G1 X49.301 Y106.406 E.05202
G1 X49.123 Y105.991 E.01387
G1 X47.807 Y107.307 E.05717
G1 X47.511 Y107.011 E.01287
G1 X48.981 Y105.54 E.0639
G1 X48.882 Y105.047 E.01546
G1 X47.215 Y106.714 E.07245
G1 X46.918 Y106.418 E.01287
G1 X48.834 Y104.503 E.08322
G1 X48.828 Y103.916 E.01804
G1 X46.622 Y106.122 E.09586
G1 X46.326 Y105.825 E.01287
G1 X48.828 Y103.323 E.10873
G1 X48.828 Y102.731 E.01821
G1 X46.03 Y105.529 E.12161
G1 X45.733 Y105.233 E.01287
G1 X48.828 Y102.138 E.13448
G1 X48.828 Y101.546 E.01821
G1 X46.51 Y103.863 E.10072
G1 X46.214 Y103.567 E.01287
G1 X48.828 Y100.953 E.11359
G1 X48.828 Y100.361 E.01821
G1 X45.918 Y103.271 E.12646
G1 X45.622 Y102.975 E.01287
G1 X48.998 Y99.598 E.14671
M204 P1000
G1 E-2.24 F2400
;WIPE_START
G1 F7200
G1 X46.961 Y101.635 E-.912
;WIPE_END
G1 E-.048 F2400
G1 Z.4 F720
G1 X125.044 Y101.914 F9000
G1 Z.2 F720
G1 E3.2 F1500
M204 P800
G1 F1200
G1 X125.304 Y101.95 E.00806
G1 X125.558 Y102.014 E.00806
G1 X125.804 Y102.106 E.00806
G1 X126.038 Y102.225 E.00806
G1 X126.258 Y102.368 E.00806
G1 X126.461 Y102.535 E.00806
G1 X126.644 Y102.723 E.00806
G1 X126.805 Y102.93 E.00806
G1 X126.942 Y103.154 E.00806
G1 X127.054 Y103.391 E.00806
G1 X127.139 Y103.639 E.00806
G1 X127.197 Y103.895 E.00806
G1 X127.226 Y104.156 E.00806
G1 X127.226 Y104.419 E.00806
G1 X127.197 Y104.68 E.00806
G1 X127.139 Y104.936 E.00806
G1 X127.054 Y105.184 E.00806
G1 X126.942 Y105.421 E.00806
G1 X126.805 Y105.645 E.00806
G1 X126.644 Y105.852 E.00806
G1 X126.461 Y106.04 E.00806
G1 X126.258 Y106.207 E.00806
G1 X126.038 Y106.35 E.00806
G1 X125.804 Y106.469 E.00806
G1 X125.558 Y106.561 E.00806
G1 X125.304 Y106.625 E.00806
G1 X125.044 Y106.661 E.00806
G1 X124.782 Y106.668 E.00806
G1 X124.52 Y106.647 E.00806
G1 X124.263 Y106.596 E.00806
G1 X124.012 Y106.518 E.00806
G1 X123.772 Y106.413 E.00806
G1 X123.545 Y106.281 E.00806
G1 X123.333 Y106.126 E.00806
G1 X123.14 Y105.948 E.00806
G1 X122.968 Y105.75 E.00806
G1 X122.818 Y105.535 E.00806
G1 X122.694 Y105.304 E.00806
G1 X122.595 Y105.061 E.00806
G1 X122.523 Y104.808 E.00806
G1 X122.48 Y104.55 E.00806
G1 X122.466 Y104.287 E.00806
G1 X122.48 Y104.026 E.00806
G1 X122.523 Y103.767 E.00806
G1 X122.595 Y103.514 E.00806
G1 X122.694 Y103.271 E.00806
G1 X122.818 Y103.04 E.00806
G1 X122.968 Y102.825 E.00806
G1 X123.14 Y102.627 E.00806
G1 X123.333 Y102.449 E.00806
G1 X123.545 Y102.294 E.00806
G1 X123.772 Y102.162 E.00806
G1 X124.012 Y102.057 E.00806
G1 X124.263 Y101.979 E.00806
G1 X124.52 Y101.928 E.00806
G1 X124.782 Y101.907 E.00806
G1 X124.988 Y101.912 E.00632
M204 P1000
G1 X125.062 Y106.487 F9000
M204 P800
G1 F1200
G1 X126.843 Y104.707 E.07738
G1 X126.886 Y104.4 E.00951
G1 X126.876 Y104.081 E.0098
G1 X124.641 Y106.316 E.09712
G1 X124.346 Y106.267 E.00918
G1 X124.157 Y106.208 E.0061
G1 X126.766 Y103.598 E.1134
G1 X126.643 Y103.316 E.00947
M73 P2 R49
G1 X126.572 Y103.2 E.00418
G1 X123.759 Y106.013 E.12225
G1 X123.428 Y105.752 E.01296
G1 X126.311 Y102.868 E.1253
G1 X126.23 Y102.785 E.00356
G1 X125.989 Y102.598 E.00939
G1 X123.158 Y105.429 E.12302
G1 X123.001 Y105.159 E.0096
G1 X122.953 Y105.041 E.0039
G1 X125.602 Y102.393 E.11509
G1 X125.457 Y102.339 E.00474
G1 X125.133 Y102.269 E.01018
G1 X122.828 Y104.574 E.10015
G1 X122.818 Y104.512 E.00191
G1 X122.806 Y104.287 E.00691
G1 X122.832 Y103.977 E.00958
G1 X124.728 Y102.081 E.08237
M204 P1000
G1 E-2.24 F2400
;WIPE_START
G1 F7200
G1 X122.832 Y103.977 E-.84892
G1 X122.815 Y104.175 E-.06308
;WIPE_END
